(G-CODE GENERATED BY FLATCAM v8.991 - www.flatcam.org - Version Date: 2019/12/27)

(Name: cnc_detectordehumo)
(Type: G-code from Geometry)
(Units: MM)

(Created on Monday, 03 February 2025 at 08:59)

(TOOL DIAMETER: 0.11 mm)
(Feedrate: 45.0 mm/min)
(Feedrate_Z: 25.0 mm/min)
(Feedrate rapids 1500.0 mm/min)

(Z_Cut: -0.0187 mm)
(Z_Move: 2.0 mm)
(Z Toolchange: 15.0 mm)
(X,Y Toolchange: 0.0000, 0.0000 mm)
(Z Start: None mm)
(Z End: 15.0 mm)
(Steps per circle: 64)
(Preprocessor Geometry: default)

(X range:    0.6567 ...   64.1433  mm)
(Y range:    0.5567 ...   49.6433  mm)

(Spindle Speed: None RPM)
G21
G90
G94




G01 F45.00
G00 Z2.0000

M03
G00 X17.6264 Y5.8281
G01 F25.00
G01 Z-0.0187
G01 F45.00
G01 X17.8757 Y5.5789
G01 X17.8797 Y5.5753
G01 X17.8840 Y5.5720
G01 X17.8887 Y5.5693
G01 X17.8935 Y5.5670
G01 X17.8986 Y5.5651
G01 X17.9039 Y5.5638
G01 X17.9092 Y5.5630
G01 X17.9146 Y5.5628
G01 X19.8450 Y5.5628
G01 X19.8504 Y5.5630
G01 X19.8557 Y5.5638
G01 X19.8609 Y5.5651
G01 X19.8660 Y5.5670
G01 X19.8709 Y5.5693
G01 X19.8755 Y5.5720
G01 X19.8799 Y5.5753
G01 X19.8839 Y5.5789
G01 X20.1215 Y5.8165
G01 X20.5998 Y5.8165
G01 X20.6577 Y5.8196
G01 X20.7123 Y5.8279
G01 X20.7607 Y5.8401
G01 X20.8128 Y5.8584
G01 X20.8629 Y5.8818
G01 X20.9104 Y5.9100
G01 X20.9550 Y5.9427
G01 X20.9981 Y5.9815
G01 X23.6633 Y8.6468
G01 X23.7099 Y8.6401
G01 X23.7971 Y8.6358
G01 X23.8025 Y8.6358
G01 X23.8950 Y8.6407
G01 X23.9866 Y8.6545
G01 X24.0712 Y8.6757
G01 X24.1585 Y8.7067
G01 X24.2424 Y8.7460
G01 X24.3220 Y8.7934
G01 X24.3264 Y8.7964
G01 X24.4007 Y8.8518
G01 X24.4653 Y8.9104
G01 X24.5277 Y8.9789
G01 X24.5831 Y9.0531
G01 X24.5861 Y9.0576
G01 X24.6335 Y9.1372
G01 X24.6729 Y9.2210
G01 X24.7039 Y9.3084
G01 X24.7250 Y9.3930
G01 X24.7261 Y9.3983
G01 X24.7394 Y9.4899
G01 X24.7437 Y9.5771
G01 X24.7394 Y9.6696
G01 X24.7261 Y9.7613
G01 X24.7250 Y9.7666
G01 X24.7039 Y9.8512
G01 X24.6729 Y9.9385
G01 X24.6335 Y10.0224
G01 X24.5861 Y10.1020
G01 X24.5312 Y10.1765
G01 X24.4692 Y10.2453
G01 X24.4007 Y10.3077
G01 X24.3264 Y10.3631
G01 X24.3220 Y10.3661
G01 X24.2424 Y10.4135
G01 X24.1585 Y10.4529
G01 X24.0712 Y10.4839
G01 X23.9813 Y10.5061
G01 X23.8896 Y10.5194
G01 X23.7971 Y10.5237
G01 X23.7099 Y10.5194
G01 X23.6183 Y10.5061
G01 X23.5284 Y10.4839
G01 X23.4410 Y10.4529
G01 X23.3572 Y10.4135
G01 X23.2776 Y10.3661
G01 X23.2030 Y10.3112
G01 X23.1342 Y10.2492
G01 X23.1304 Y10.2453
G01 X23.0718 Y10.1807
G01 X23.0164 Y10.1064
G01 X22.9686 Y10.0271
G01 X22.9660 Y10.0224
G01 X22.9267 Y9.9385
G01 X22.8957 Y9.8512
G01 X22.8745 Y9.7666
G01 X22.8607 Y9.6750
G01 X22.8558 Y9.5825
G01 X22.8558 Y9.5771
G01 X22.8601 Y9.4899
G01 X22.8668 Y9.4433
G01 X20.3665 Y6.9430
G01 X20.1215 Y6.9430
G01 X19.8839 Y7.1807
G01 X19.8799 Y7.1843
G01 X19.8755 Y7.1875
G01 X19.8709 Y7.1903
G01 X19.8660 Y7.1926
G01 X19.8609 Y7.1944
G01 X19.8557 Y7.1957
G01 X19.8504 Y7.1965
G01 X19.8450 Y7.1968
G01 X17.9146 Y7.1968
G01 X17.9092 Y7.1965
G01 X17.9039 Y7.1957
G01 X17.8986 Y7.1944
G01 X17.8935 Y7.1926
G01 X17.8887 Y7.1903
G01 X17.8840 Y7.1875
G01 X17.8797 Y7.1843
G01 X17.8757 Y7.1807
G01 X17.8056 Y7.1106
G01 X13.6531 Y11.2630
G01 X13.7452 Y11.2630
G01 X13.7506 Y11.2633
G01 X13.7559 Y11.2641
G01 X13.7612 Y11.2654
G01 X13.7662 Y11.2672
G01 X13.7711 Y11.2695
G01 X13.7758 Y11.2723
G01 X13.7801 Y11.2755
G01 X13.7841 Y11.2791
G01 X14.0889 Y11.5839
G01 X14.0925 Y11.5879
G01 X14.0957 Y11.5922
G01 X14.0985 Y11.5969
G01 X14.1008 Y11.6018
G01 X14.1026 Y11.6068
G01 X14.1039 Y11.6121
G01 X14.1047 Y11.6174
G01 X14.1050 Y11.6228
G01 X14.1050 Y12.5372
G01 X14.1047 Y12.5426
G01 X14.1039 Y12.5479
G01 X14.1026 Y12.5532
G01 X14.1008 Y12.5582
G01 X14.0985 Y12.5631
G01 X14.0957 Y12.5678
G01 X14.0925 Y12.5721
G01 X14.0889 Y12.5761
G01 X13.7841 Y12.8809
G01 X13.7801 Y12.8845
G01 X13.7758 Y12.8877
G01 X13.7711 Y12.8905
G01 X13.7662 Y12.8928
G01 X13.7612 Y12.8946
G01 X13.7559 Y12.8959
G01 X13.7506 Y12.8967
G01 X13.7452 Y12.8970
G01 X11.8148 Y12.8970
G01 X11.8094 Y12.8967
G01 X11.8041 Y12.8959
G01 X11.7988 Y12.8946
G01 X11.7938 Y12.8928
G01 X11.7889 Y12.8905
G01 X11.7842 Y12.8877
G01 X11.7799 Y12.8845
G01 X11.7759 Y12.8809
G01 X11.4711 Y12.5761
G01 X11.4675 Y12.5721
G01 X11.4643 Y12.5678
G01 X11.4615 Y12.5631
G01 X11.4592 Y12.5582
G01 X11.4574 Y12.5532
G01 X11.4561 Y12.5479
G01 X11.4553 Y12.5426
G01 X11.4550 Y12.5372
G01 X11.4550 Y11.6228
G01 X11.4553 Y11.6174
G01 X11.4561 Y11.6121
G01 X11.4574 Y11.6068
G01 X11.4592 Y11.6018
G01 X11.4615 Y11.5969
G01 X11.4643 Y11.5922
G01 X11.4675 Y11.5879
G01 X11.4711 Y11.5839
G01 X11.7759 Y11.2791
G01 X11.7799 Y11.2755
G01 X11.7842 Y11.2723
G01 X11.7889 Y11.2695
G01 X11.7938 Y11.2672
G01 X11.7988 Y11.2654
G01 X11.8041 Y11.2641
G01 X11.8094 Y11.2633
G01 X11.8148 Y11.2630
G01 X11.8464 Y11.2630
G01 X8.5779 Y7.9944
G01 X6.2333 Y7.9944
G01 X5.7007 Y8.5270
G01 X5.7007 Y22.0406
G01 X7.7383 Y24.0782
G01 X7.7771 Y24.1213
G01 X7.8098 Y24.1659
G01 X7.8380 Y24.2134
G01 X7.8593 Y24.2585
G01 X7.8782 Y24.3104
G01 X7.8797 Y24.3156
G01 X7.8918 Y24.3640
G01 X7.9002 Y24.4186
G01 X7.9032 Y24.4738
G01 X7.9033 Y26.4830
G01 X8.3052 Y26.4830
G01 X8.3106 Y26.4833
G01 X8.3159 Y26.4841
G01 X8.3212 Y26.4854
G01 X8.3262 Y26.4872
G01 X8.3311 Y26.4895
G01 X8.3358 Y26.4923
G01 X8.3401 Y26.4955
G01 X8.3441 Y26.4991
G01 X8.6489 Y26.8039
G01 X8.6525 Y26.8079
G01 X8.6557 Y26.8122
G01 X8.6585 Y26.8169
G01 X8.6608 Y26.8218
G01 X8.6626 Y26.8268
G01 X8.6639 Y26.8321
G01 X8.6647 Y26.8374
G01 X8.6650 Y26.8428
G01 X8.6650 Y27.7572
G01 X8.6647 Y27.7626
G01 X8.6639 Y27.7679
G01 X8.6626 Y27.7732
G01 X8.6608 Y27.7782
G01 X8.6585 Y27.7831
G01 X8.6557 Y27.7878
G01 X8.6525 Y27.7921
G01 X8.6489 Y27.7961
G01 X8.3441 Y28.1009
G01 X8.3401 Y28.1045
G01 X8.3358 Y28.1077
G01 X8.3311 Y28.1105
G01 X8.3262 Y28.1128
G01 X8.3212 Y28.1146
G01 X8.3159 Y28.1159
G01 X8.3106 Y28.1167
G01 X8.3052 Y28.1170
G01 X6.3748 Y28.1170
G01 X6.3694 Y28.1167
G01 X6.3641 Y28.1159
G01 X6.3588 Y28.1146
G01 X6.3538 Y28.1128
G01 X6.3489 Y28.1105
G01 X6.3442 Y28.1077
G01 X6.3399 Y28.1045
G01 X6.3359 Y28.1009
G01 X6.0311 Y27.7961
G01 X6.0275 Y27.7921
G01 X6.0243 Y27.7878
G01 X6.0215 Y27.7831
G01 X6.0192 Y27.7782
G01 X6.0174 Y27.7732
G01 X6.0161 Y27.7679
G01 X6.0153 Y27.7626
G01 X6.0150 Y27.7572
G01 X6.0150 Y26.8428
G01 X6.0153 Y26.8374
G01 X6.0161 Y26.8321
G01 X6.0174 Y26.8268
G01 X6.0192 Y26.8218
G01 X6.0215 Y26.8169
G01 X6.0243 Y26.8122
G01 X6.0275 Y26.8079
G01 X6.0311 Y26.8039
G01 X6.3359 Y26.4991
G01 X6.3399 Y26.4955
G01 X6.3442 Y26.4923
G01 X6.3489 Y26.4895
G01 X6.3538 Y26.4872
G01 X6.3588 Y26.4854
G01 X6.3641 Y26.4841
G01 X6.3694 Y26.4833
G01 X6.3748 Y26.4830
G01 X6.7767 Y26.4830
G01 X6.7767 Y24.7098
G01 X4.7373 Y22.6703
G01 X4.7038 Y22.6333
G01 X4.6707 Y22.5891
G01 X4.6420 Y22.5418
G01 X4.6182 Y22.4920
G01 X4.5993 Y22.4400
G01 X4.5977 Y22.4349
G01 X4.5846 Y22.3812
G01 X4.5767 Y22.3265
G01 X4.5742 Y22.2739
G01 X4.5742 Y8.2937
G01 X4.5772 Y8.2358
G01 X4.5856 Y8.1812
G01 X4.5993 Y8.1276
G01 X4.6182 Y8.0757
G01 X4.6395 Y8.0306
G01 X4.6420 Y8.0258
G01 X4.6707 Y7.9786
G01 X4.7038 Y7.9343
G01 X4.7392 Y7.8954
G01 X5.6037 Y7.0310
G01 X5.6448 Y6.9941
G01 X5.6894 Y6.9614
G01 X5.7321 Y6.9357
G01 X5.7820 Y6.9119
G01 X5.8339 Y6.8930
G01 X5.8391 Y6.8914
G01 X5.8875 Y6.8793
G01 X5.9421 Y6.8709
G01 X6.0000 Y6.8679
G01 X8.8112 Y6.8679
G01 X8.8637 Y6.8704
G01 X8.9184 Y6.8783
G01 X8.9721 Y6.8914
G01 X8.9772 Y6.8930
G01 X9.0292 Y6.9119
G01 X9.0743 Y6.9332
G01 X9.1218 Y6.9614
G01 X9.1664 Y6.9941
G01 X9.2094 Y7.0329
G01 X12.7498 Y10.5732
G01 X17.3415 Y5.9815
G01 X17.3846 Y5.9427
G01 X17.4291 Y5.9100
G01 X17.4719 Y5.8844
G01 X17.4767 Y5.8818
G01 X17.5268 Y5.8584
G01 X17.5737 Y5.8416
G01 X17.6264 Y5.8281
G00 Z2.0000
G00 X21.3947 Y11.2716
G01 F25.00
G01 Z-0.0187
G01 F45.00
G01 X21.4421 Y11.2789
G01 X21.5198 Y11.2987
G01 X21.5953 Y11.3259
G01 X21.6629 Y11.3579
G01 X21.7318 Y11.3989
G01 X21.7363 Y11.4019
G01 X21.8006 Y11.4499
G01 X21.8560 Y11.5002
G01 X24.1386 Y13.7826
G01 X27.7546 Y13.7827
G01 X27.8294 Y13.7864
G01 X27.9088 Y13.7979
G01 X27.9140 Y13.7989
G01 X27.9918 Y13.8187
G01 X28.0672 Y13.8459
G01 X28.1348 Y13.8779
G01 X28.2038 Y13.9189
G01 X28.2083 Y13.9219
G01 X28.2725 Y13.9699
G01 X28.3299 Y14.0220
G01 X30.5809 Y16.2730
G01 X30.6441 Y16.3441
G01 X30.6998 Y16.4150
G01 X31.1572 Y16.4150
G01 X31.1626 Y16.4153
G01 X31.1679 Y16.4161
G01 X31.1732 Y16.4174
G01 X31.1782 Y16.4192
G01 X31.1831 Y16.4215
G01 X31.1878 Y16.4243
G01 X31.1921 Y16.4275
G01 X31.1961 Y16.4311
G01 X31.5009 Y16.7359
G01 X31.5045 Y16.7399
G01 X31.5077 Y16.7442
G01 X31.5105 Y16.7489
G01 X31.5128 Y16.7538
G01 X31.5146 Y16.7588
G01 X31.5159 Y16.7641
G01 X31.5167 Y16.7694
G01 X31.5170 Y16.7748
G01 X31.5172 Y17.7555
G01 X31.5170 Y18.7052
G01 X31.5167 Y18.7106
G01 X31.5159 Y18.7159
G01 X31.5146 Y18.7212
G01 X31.5128 Y18.7262
G01 X31.5105 Y18.7311
G01 X31.5077 Y18.7358
G01 X31.5045 Y18.7401
G01 X31.5009 Y18.7441
G01 X31.1961 Y19.0489
G01 X31.1921 Y19.0525
G01 X31.1878 Y19.0557
G01 X31.1831 Y19.0585
G01 X31.1782 Y19.0608
G01 X31.1732 Y19.0626
G01 X31.1679 Y19.0639
G01 X31.1626 Y19.0647
G01 X31.1572 Y19.0650
G01 X30.2428 Y19.0650
G01 X30.2374 Y19.0647
G01 X30.2321 Y19.0639
G01 X30.2268 Y19.0626
G01 X30.2218 Y19.0608
G01 X30.2169 Y19.0585
G01 X30.2122 Y19.0557
G01 X30.2079 Y19.0525
G01 X30.2039 Y19.0489
G01 X29.8991 Y18.7441
G01 X29.8955 Y18.7401
G01 X29.8923 Y18.7358
G01 X29.8895 Y18.7311
G01 X29.8872 Y18.7262
G01 X29.8854 Y18.7212
G01 X29.8841 Y18.7159
G01 X29.8833 Y18.7106
G01 X29.8830 Y18.7052
G01 X29.8830 Y18.0227
G01 X29.3901 Y17.3941
G01 X27.4134 Y15.4174
G01 X23.8000 Y15.4174
G01 X23.7226 Y15.4136
G01 X23.6432 Y15.4021
G01 X23.6379 Y15.4011
G01 X23.5602 Y15.3813
G01 X23.4847 Y15.3541
G01 X23.4171 Y15.3221
G01 X23.3482 Y15.2811
G01 X23.2836 Y15.2335
G01 X23.2240 Y15.1798
G01 X20.9414 Y12.8974
G01 X19.4348 Y12.8970
G01 X19.4294 Y12.8967
G01 X19.4241 Y12.8959
G01 X19.4188 Y12.8946
G01 X19.4138 Y12.8928
G01 X19.4089 Y12.8905
G01 X19.4042 Y12.8877
G01 X19.3999 Y12.8845
G01 X19.3959 Y12.8809
G01 X19.0911 Y12.5761
G01 X19.0875 Y12.5721
G01 X19.0843 Y12.5678
G01 X19.0815 Y12.5631
G01 X19.0792 Y12.5582
G01 X19.0774 Y12.5532
G01 X19.0761 Y12.5479
G01 X19.0753 Y12.5426
G01 X19.0750 Y12.5372
G01 X19.0750 Y11.6228
G01 X19.0753 Y11.6174
G01 X19.0761 Y11.6121
G01 X19.0774 Y11.6068
G01 X19.0792 Y11.6018
G01 X19.0815 Y11.5969
G01 X19.0843 Y11.5922
G01 X19.0875 Y11.5879
G01 X19.0911 Y11.5839
G01 X19.3959 Y11.2791
G01 X19.3999 Y11.2755
G01 X19.4042 Y11.2723
G01 X19.4089 Y11.2695
G01 X19.4138 Y11.2672
G01 X19.4188 Y11.2654
G01 X19.4241 Y11.2641
G01 X19.4294 Y11.2633
G01 X19.4348 Y11.2630
G01 X21.2800 Y11.2626
G01 X21.2891 Y11.2630
G01 X21.3706 Y11.2633
G01 X21.3759 Y11.2641
G01 X21.3812 Y11.2654
G01 X21.3862 Y11.2672
G01 X21.3947 Y11.2716
G00 Z2.0000
G00 X21.7250 Y14.2513
G01 F25.00
G01 Z-0.0187
G01 F45.00
G01 X21.7661 Y14.2618
G01 X21.8130 Y14.2786
G01 X21.8631 Y14.3020
G01 X21.8679 Y14.3046
G01 X21.9151 Y14.3332
G01 X21.9552 Y14.3629
G01 X21.9983 Y14.4017
G01 X24.7333 Y17.1367
G01 X25.0830 Y17.1367
G01 X25.0830 Y16.8748
G01 X25.0833 Y16.8694
G01 X25.0841 Y16.8641
G01 X25.0854 Y16.8588
G01 X25.0872 Y16.8538
G01 X25.0895 Y16.8489
G01 X25.0923 Y16.8442
G01 X25.0955 Y16.8399
G01 X25.0991 Y16.8359
G01 X25.4039 Y16.5311
G01 X25.4079 Y16.5275
G01 X25.4122 Y16.5243
G01 X25.4169 Y16.5215
G01 X25.4218 Y16.5192
G01 X25.4268 Y16.5174
G01 X25.4321 Y16.5161
G01 X25.4374 Y16.5153
G01 X25.4428 Y16.5150
G01 X26.3572 Y16.5150
G01 X26.3626 Y16.5153
G01 X26.3679 Y16.5161
G01 X26.3732 Y16.5174
G01 X26.3782 Y16.5192
G01 X26.3831 Y16.5215
G01 X26.3878 Y16.5243
G01 X26.3921 Y16.5275
G01 X26.3961 Y16.5311
G01 X26.7009 Y16.8359
G01 X26.7045 Y16.8399
G01 X26.7077 Y16.8442
G01 X26.7105 Y16.8489
G01 X26.7128 Y16.8538
G01 X26.7146 Y16.8588
G01 X26.7159 Y16.8641
G01 X26.7167 Y16.8694
G01 X26.7170 Y16.8748
G01 X26.7170 Y18.8052
G01 X26.7167 Y18.8106
G01 X26.7159 Y18.8159
G01 X26.7146 Y18.8212
G01 X26.7128 Y18.8262
G01 X26.7105 Y18.8311
G01 X26.7077 Y18.8358
G01 X26.7045 Y18.8401
G01 X26.7009 Y18.8441
G01 X26.3961 Y19.1489
G01 X26.3921 Y19.1525
G01 X26.3878 Y19.1557
G01 X26.3831 Y19.1585
G01 X26.3782 Y19.1608
G01 X26.3732 Y19.1626
G01 X26.3679 Y19.1639
G01 X26.3626 Y19.1647
G01 X26.3572 Y19.1650
G01 X25.4428 Y19.1650
G01 X25.4374 Y19.1647
G01 X25.4321 Y19.1639
G01 X25.4268 Y19.1626
G01 X25.4218 Y19.1608
G01 X25.4169 Y19.1585
G01 X25.4122 Y19.1557
G01 X25.4079 Y19.1525
G01 X25.4039 Y19.1489
G01 X25.0991 Y18.8441
G01 X25.0955 Y18.8401
G01 X25.0923 Y18.8358
G01 X25.0895 Y18.8311
G01 X25.0872 Y18.8262
G01 X25.0854 Y18.8212
G01 X25.0841 Y18.8159
G01 X25.0833 Y18.8106
G01 X25.0830 Y18.8052
G01 X25.0830 Y18.2633
G01 X24.5000 Y18.2633
G01 X24.4421 Y18.2602
G01 X24.3875 Y18.2518
G01 X24.3391 Y18.2397
G01 X24.3339 Y18.2382
G01 X24.2820 Y18.2193
G01 X24.2321 Y18.1954
G01 X24.1849 Y18.1668
G01 X24.1448 Y18.1371
G01 X24.1017 Y18.0983
G01 X21.4142 Y15.4108
G01 X21.4001 Y15.4245
G01 X21.3958 Y15.4277
G01 X21.3911 Y15.4305
G01 X21.3862 Y15.4328
G01 X21.3812 Y15.4346
G01 X21.3759 Y15.4359
G01 X21.3706 Y15.4367
G01 X21.3652 Y15.4370
G01 X19.4348 Y15.4370
G01 X19.4294 Y15.4367
G01 X19.4241 Y15.4359
G01 X19.4188 Y15.4346
G01 X19.4138 Y15.4328
G01 X19.4089 Y15.4305
G01 X19.4042 Y15.4277
G01 X19.3999 Y15.4245
G01 X19.3959 Y15.4209
G01 X19.0911 Y15.1161
G01 X19.0875 Y15.1121
G01 X19.0843 Y15.1078
G01 X19.0815 Y15.1031
G01 X19.0792 Y15.0982
G01 X19.0774 Y15.0932
G01 X19.0761 Y15.0879
G01 X19.0753 Y15.0826
G01 X19.0750 Y15.0772
G01 X19.0750 Y14.1628
G01 X19.0753 Y14.1574
G01 X19.0761 Y14.1521
G01 X19.0774 Y14.1468
G01 X19.0792 Y14.1418
G01 X19.0815 Y14.1369
G01 X19.0843 Y14.1322
G01 X19.0875 Y14.1279
G01 X19.0911 Y14.1239
G01 X19.3959 Y13.8191
G01 X19.3999 Y13.8155
G01 X19.4042 Y13.8123
G01 X19.4089 Y13.8095
G01 X19.4138 Y13.8072
G01 X19.4188 Y13.8054
G01 X19.4241 Y13.8041
G01 X19.4294 Y13.8033
G01 X19.4348 Y13.8030
G01 X21.3652 Y13.8030
G01 X21.3706 Y13.8033
G01 X21.3759 Y13.8041
G01 X21.3812 Y13.8054
G01 X21.3862 Y13.8072
G01 X21.3911 Y13.8095
G01 X21.3958 Y13.8123
G01 X21.4001 Y13.8155
G01 X21.4041 Y13.8191
G01 X21.7089 Y14.1239
G01 X21.7125 Y14.1279
G01 X21.7157 Y14.1322
G01 X21.7185 Y14.1369
G01 X21.7208 Y14.1418
G01 X21.7226 Y14.1468
G01 X21.7239 Y14.1521
G01 X21.7247 Y14.1574
G01 X21.7250 Y14.2513
G00 Z2.0000
G00 X14.0889 Y14.1239
G01 F25.00
G01 Z-0.0187
G01 F45.00
G01 X14.0925 Y14.1279
G01 X14.0957 Y14.1322
G01 X14.0985 Y14.1369
G01 X14.1008 Y14.1418
G01 X14.1026 Y14.1468
G01 X14.1039 Y14.1521
G01 X14.1047 Y14.1574
G01 X14.1050 Y14.1628
G01 X14.1050 Y15.0772
G01 X14.1047 Y15.0826
G01 X14.1039 Y15.0879
G01 X14.1026 Y15.0932
G01 X14.1008 Y15.0982
G01 X14.0985 Y15.1031
G01 X14.0957 Y15.1078
G01 X14.0925 Y15.1121
G01 X14.0889 Y15.1161
G01 X13.7841 Y15.4209
G01 X13.7801 Y15.4245
G01 X13.7758 Y15.4277
G01 X13.7711 Y15.4305
G01 X13.7662 Y15.4328
G01 X13.7612 Y15.4346
G01 X13.7559 Y15.4359
G01 X13.7506 Y15.4367
G01 X13.7452 Y15.4370
G01 X11.8148 Y15.4370
G01 X11.8094 Y15.4367
G01 X11.8041 Y15.4359
G01 X11.7988 Y15.4346
G01 X11.7938 Y15.4328
G01 X11.7889 Y15.4305
G01 X11.7842 Y15.4277
G01 X11.7799 Y15.4245
G01 X11.7759 Y15.4209
G01 X11.5383 Y15.1833
G01 X9.4823 Y15.1832
G01 X9.4271 Y15.1802
G01 X9.3724 Y15.1718
G01 X9.3241 Y15.1597
G01 X9.3189 Y15.1582
G01 X9.2669 Y15.1393
G01 X9.2219 Y15.1180
G01 X9.1743 Y15.0898
G01 X9.1298 Y15.0571
G01 X9.0867 Y15.0183
G01 X8.1289 Y14.0606
G01 X8.0936 Y14.0216
G01 X8.0605 Y13.9774
G01 X8.0318 Y13.9301
G01 X8.0079 Y13.8803
G01 X7.9891 Y13.8283
G01 X7.9754 Y13.7748
G01 X7.9670 Y13.7202
G01 X7.9640 Y13.6623
G01 X7.9640 Y11.1005
G01 X7.7364 Y10.8730
G01 X7.6898 Y10.8797
G01 X7.5973 Y10.8839
G01 X7.5102 Y10.8797
G01 X7.4185 Y10.8663
G01 X7.4132 Y10.8653
G01 X7.3234 Y10.8425
G01 X7.2363 Y10.8110
G01 X7.1527 Y10.7712
G01 X7.0733 Y10.7234
G01 X6.9991 Y10.6680
G01 X6.9344 Y10.6094
G01 X6.8720 Y10.5409
G01 X6.8166 Y10.4667
G01 X6.8136 Y10.4622
G01 X6.7663 Y10.3826
G01 X6.7290 Y10.3037
G01 X6.6975 Y10.2166
G01 X6.6959 Y10.2114
G01 X6.6737 Y10.1215
G01 X6.6603 Y10.0298
G01 X6.6561 Y9.9427
G01 X6.6561 Y9.9373
G01 X6.6609 Y9.8448
G01 X6.6747 Y9.7532
G01 X6.6959 Y9.6686
G01 X6.6975 Y9.6634
G01 X6.7290 Y9.5763
G01 X6.7663 Y9.4974
G01 X6.8136 Y9.4178
G01 X6.8166 Y9.4133
G01 X6.8720 Y9.3391
G01 X6.9344 Y9.2706
G01 X6.9991 Y9.2120
G01 X7.0733 Y9.1566
G01 X7.1527 Y9.1088
G01 X7.2363 Y9.0690
G01 X7.3234 Y9.0375
G01 X7.3286 Y9.0359
G01 X7.4185 Y9.0137
G01 X7.5102 Y9.0003
G01 X7.5973 Y8.9961
G01 X7.6898 Y9.0003
G01 X7.7815 Y9.0137
G01 X7.7868 Y9.0147
G01 X7.8714 Y9.0359
G01 X7.9587 Y9.0669
G01 X8.0426 Y9.1063
G01 X8.1222 Y9.1536
G01 X8.1267 Y9.1566
G01 X8.2009 Y9.2120
G01 X8.2656 Y9.2706
G01 X8.3280 Y9.3391
G01 X8.3834 Y9.4133
G01 X8.3864 Y9.4178
G01 X8.4337 Y9.4974
G01 X8.4731 Y9.5813
G01 X8.5041 Y9.6686
G01 X8.5253 Y9.7532
G01 X8.5391 Y9.8448
G01 X8.5439 Y9.9373
G01 X8.5397 Y10.0298
G01 X8.5330 Y10.0764
G01 X8.9255 Y10.4689
G01 X8.9643 Y10.5120
G01 X8.9970 Y10.5566
G01 X9.0226 Y10.5994
G01 X9.0465 Y10.6492
G01 X9.0654 Y10.7012
G01 X9.0670 Y10.7063
G01 X9.0801 Y10.7600
G01 X9.0880 Y10.8147
G01 X9.0905 Y10.8672
G01 X9.0905 Y13.4290
G01 X9.7183 Y14.0567
G01 X11.5383 Y14.0567
G01 X11.7759 Y13.8191
G01 X11.7799 Y13.8155
G01 X11.7842 Y13.8123
G01 X11.7889 Y13.8095
G01 X11.7938 Y13.8072
G01 X11.7988 Y13.8054
G01 X11.8041 Y13.8041
G01 X11.8094 Y13.8033
G01 X11.8148 Y13.8030
G01 X13.7452 Y13.8030
G01 X13.7506 Y13.8033
G01 X13.7559 Y13.8041
G01 X13.7612 Y13.8054
G01 X13.7662 Y13.8072
G01 X13.7711 Y13.8095
G01 X13.7758 Y13.8123
G01 X13.7801 Y13.8155
G01 X13.7841 Y13.8191
G01 X14.0889 Y14.1239
G00 Z2.0000
G00 X14.0889 Y16.6639
G01 F25.00
G01 Z-0.0187
G01 F45.00
G01 X14.0925 Y16.6679
G01 X14.0957 Y16.6722
G01 X14.0985 Y16.6769
G01 X14.1008 Y16.6818
G01 X14.1026 Y16.6868
G01 X14.1039 Y16.6921
G01 X14.1047 Y16.6974
G01 X14.1050 Y16.7028
G01 X14.1050 Y17.6172
G01 X14.1047 Y17.6226
G01 X14.1039 Y17.6279
G01 X14.1026 Y17.6332
G01 X14.1008 Y17.6382
G01 X14.0985 Y17.6431
G01 X14.0957 Y17.6478
G01 X14.0925 Y17.6521
G01 X14.0889 Y17.6561
G01 X13.7841 Y17.9609
G01 X13.7801 Y17.9645
G01 X13.7758 Y17.9677
G01 X13.7711 Y17.9705
G01 X13.7662 Y17.9728
G01 X13.7612 Y17.9746
G01 X13.7559 Y17.9759
G01 X13.7506 Y17.9767
G01 X13.7452 Y17.9770
G01 X11.8148 Y17.9770
G01 X11.8094 Y17.9767
G01 X11.8041 Y17.9759
G01 X11.7988 Y17.9746
G01 X11.7938 Y17.9728
G01 X11.7889 Y17.9705
G01 X11.7842 Y17.9677
G01 X11.7799 Y17.9645
G01 X11.7759 Y17.9609
G01 X11.4711 Y17.6561
G01 X11.4675 Y17.6521
G01 X11.4643 Y17.6478
G01 X11.4615 Y17.6431
G01 X11.4592 Y17.6382
G01 X11.4574 Y17.6332
G01 X11.4561 Y17.6279
G01 X11.4553 Y17.6226
G01 X11.4550 Y17.6172
G01 X11.4550 Y16.7028
G01 X11.4553 Y16.6974
G01 X11.4561 Y16.6921
G01 X11.4574 Y16.6868
G01 X11.4592 Y16.6818
G01 X11.4615 Y16.6769
G01 X11.4643 Y16.6722
G01 X11.4675 Y16.6679
G01 X11.4711 Y16.6639
G01 X11.7759 Y16.3591
G01 X11.7799 Y16.3555
G01 X11.7842 Y16.3523
G01 X11.7889 Y16.3495
G01 X11.7938 Y16.3472
G01 X11.7988 Y16.3454
G01 X11.8041 Y16.3441
G01 X11.8094 Y16.3433
G01 X11.8148 Y16.3430
G01 X13.7452 Y16.3430
G01 X13.7506 Y16.3433
G01 X13.7559 Y16.3441
G01 X13.7612 Y16.3454
G01 X13.7662 Y16.3472
G01 X13.7711 Y16.3495
G01 X13.7758 Y16.3523
G01 X13.7801 Y16.3555
G01 X13.7841 Y16.3591
G01 X14.0889 Y16.6639
G00 Z2.0000
G00 X27.0689 Y31.9959
G01 F25.00
G01 Z-0.0187
G01 F45.00
G01 X27.0725 Y31.9999
G01 X27.0757 Y32.0042
G01 X27.0785 Y32.0089
G01 X27.0808 Y32.0138
G01 X27.0826 Y32.0188
G01 X27.0839 Y32.0241
G01 X27.0847 Y32.0294
G01 X27.0850 Y32.0348
G01 X27.0850 Y33.9652
G01 X27.0847 Y33.9706
G01 X27.0839 Y33.9759
G01 X27.0826 Y33.9812
G01 X27.0808 Y33.9862
G01 X27.0785 Y33.9911
G01 X27.0757 Y33.9958
G01 X27.0725 Y34.0001
G01 X27.0689 Y34.0041
G01 X26.7641 Y34.3089
G01 X26.7601 Y34.3125
G01 X26.7558 Y34.3157
G01 X26.7511 Y34.3185
G01 X26.7462 Y34.3208
G01 X26.7412 Y34.3226
G01 X26.7359 Y34.3239
G01 X26.7306 Y34.3247
G01 X26.7252 Y34.3250
G01 X25.8108 Y34.3250
G01 X25.8054 Y34.3247
G01 X25.8001 Y34.3239
G01 X25.7948 Y34.3226
G01 X25.7898 Y34.3208
G01 X25.7849 Y34.3185
G01 X25.7802 Y34.3157
G01 X25.7759 Y34.3125
G01 X25.7719 Y34.3089
G01 X25.4671 Y34.0041
G01 X25.4635 Y34.0001
G01 X25.4603 Y33.9958
G01 X25.4575 Y33.9911
G01 X25.4552 Y33.9862
G01 X25.4534 Y33.9812
G01 X25.4521 Y33.9759
G01 X25.4513 Y33.9706
G01 X25.4510 Y33.9652
G01 X25.4510 Y32.9711
G01 X25.4302 Y32.9426
G01 X25.4020 Y32.8951
G01 X25.3807 Y32.8500
G01 X25.3618 Y32.7981
G01 X25.3603 Y32.7929
G01 X25.3471 Y32.7392
G01 X25.3393 Y32.6845
G01 X25.3367 Y32.6320
G01 X25.3367 Y29.2417
G01 X25.0991 Y29.0041
G01 X25.0955 Y29.0001
G01 X25.0923 Y28.9958
G01 X25.0895 Y28.9911
G01 X25.0872 Y28.9862
G01 X25.0854 Y28.9812
G01 X25.0841 Y28.9759
G01 X25.0833 Y28.9706
G01 X25.0830 Y28.9652
G01 X25.0830 Y27.0348
G01 X25.0833 Y27.0294
G01 X25.0841 Y27.0241
G01 X25.0854 Y27.0188
G01 X25.0872 Y27.0138
G01 X25.0895 Y27.0089
G01 X25.0923 Y27.0042
G01 X25.0955 Y26.9999
G01 X25.0991 Y26.9959
G01 X25.4039 Y26.6911
G01 X25.4079 Y26.6875
G01 X25.4122 Y26.6843
G01 X25.4169 Y26.6815
G01 X25.4218 Y26.6792
G01 X25.4268 Y26.6774
G01 X25.4321 Y26.6761
G01 X25.4374 Y26.6753
G01 X25.4428 Y26.6750
G01 X26.3572 Y26.6750
G01 X26.3626 Y26.6753
G01 X26.3679 Y26.6761
G01 X26.3732 Y26.6774
G01 X26.3782 Y26.6792
G01 X26.3831 Y26.6815
G01 X26.3878 Y26.6843
G01 X26.3921 Y26.6875
G01 X26.3961 Y26.6911
G01 X26.7009 Y26.9959
G01 X26.7045 Y26.9999
G01 X26.7077 Y27.0042
G01 X26.7105 Y27.0089
G01 X26.7128 Y27.0138
G01 X26.7146 Y27.0188
G01 X26.7159 Y27.0241
G01 X26.7167 Y27.0294
G01 X26.7170 Y27.0348
G01 X26.7170 Y28.9652
G01 X26.7167 Y28.9706
G01 X26.7159 Y28.9759
G01 X26.7146 Y28.9812
G01 X26.7128 Y28.9862
G01 X26.7105 Y28.9911
G01 X26.7077 Y28.9958
G01 X26.7045 Y29.0001
G01 X26.7009 Y29.0041
G01 X26.4633 Y29.2417
G01 X26.4633 Y31.6750
G01 X26.7252 Y31.6750
G01 X26.7306 Y31.6753
G01 X26.7359 Y31.6761
G01 X26.7412 Y31.6774
G01 X26.7462 Y31.6792
G01 X26.7511 Y31.6815
G01 X26.7558 Y31.6843
G01 X26.7601 Y31.6875
G01 X26.7641 Y31.6911
G01 X27.0689 Y31.9959
G00 Z2.0000
G00 X14.1097 Y42.4033
G01 F25.00
G01 Z-0.0187
G01 F45.00
G01 X14.0004 Y42.3222
G01 X13.9962 Y42.3188
G01 X13.8854 Y42.2184
G01 X13.8816 Y42.2146
G01 X13.7812 Y42.1038
G01 X13.7778 Y42.0996
G01 X13.6887 Y41.9795
G01 X13.6857 Y41.9750
G01 X13.6088 Y41.8467
G01 X13.6062 Y41.8419
G01 X13.5423 Y41.7067
G01 X13.5402 Y41.7017
G01 X13.4898 Y41.5609
G01 X13.4883 Y41.5558
G01 X13.4519 Y41.4107
G01 X13.4509 Y41.4054
G01 X13.4289 Y41.2574
G01 X13.4284 Y41.2521
G01 X13.4211 Y41.1027
G01 X13.4211 Y41.0973
G01 X13.4284 Y40.9479
G01 X13.4289 Y40.9426
G01 X13.4509 Y40.7946
G01 X13.4519 Y40.7893
G01 X13.4883 Y40.6442
G01 X13.4898 Y40.6391
G01 X13.5402 Y40.4983
G01 X13.5423 Y40.4933
G01 X13.6062 Y40.3581
G01 X13.6088 Y40.3533
G01 X13.6857 Y40.2250
G01 X13.6887 Y40.2205
G01 X13.7778 Y40.1004
G01 X13.7812 Y40.0962
G01 X13.8816 Y39.9854
G01 X13.8854 Y39.9816
G01 X13.9962 Y39.8812
G01 X14.0004 Y39.8778
G01 X14.1205 Y39.7887
G01 X14.1250 Y39.7857
G01 X14.2533 Y39.7088
G01 X14.2581 Y39.7062
G01 X14.3933 Y39.6423
G01 X14.3983 Y39.6402
G01 X14.5391 Y39.5898
G01 X14.5442 Y39.5883
G01 X14.6893 Y39.5519
G01 X14.6946 Y39.5509
G01 X14.8426 Y39.5289
G01 X14.8479 Y39.5284
G01 X14.9973 Y39.5211
G01 X15.0027 Y39.5211
G01 X15.1521 Y39.5284
G01 X15.1574 Y39.5289
G01 X15.3054 Y39.5509
G01 X15.3107 Y39.5519
G01 X15.4558 Y39.5883
G01 X15.4609 Y39.5898
G01 X15.6017 Y39.6402
G01 X15.6067 Y39.6423
G01 X15.7419 Y39.7062
G01 X15.7467 Y39.7088
G01 X15.8750 Y39.7857
G01 X15.8795 Y39.7887
G01 X15.9996 Y39.8778
G01 X16.0038 Y39.8812
G01 X16.1061 Y39.9739
G01 X23.4190 Y32.6610
G01 X23.4190 Y32.0348
G01 X23.4193 Y32.0294
G01 X23.4201 Y32.0241
G01 X23.4214 Y32.0188
G01 X23.4232 Y32.0138
G01 X23.4255 Y32.0089
G01 X23.4283 Y32.0042
G01 X23.4315 Y31.9999
G01 X23.4351 Y31.9959
G01 X23.7399 Y31.6911
G01 X23.7439 Y31.6875
G01 X23.7482 Y31.6843
G01 X23.7529 Y31.6815
G01 X23.7578 Y31.6792
G01 X23.7628 Y31.6774
G01 X23.7681 Y31.6761
G01 X23.7734 Y31.6753
G01 X23.7788 Y31.6750
G01 X24.6932 Y31.6750
G01 X24.6986 Y31.6753
G01 X24.7039 Y31.6761
G01 X24.7092 Y31.6774
G01 X24.7142 Y31.6792
G01 X24.7191 Y31.6815
G01 X24.7238 Y31.6843
G01 X24.7281 Y31.6875
G01 X24.7321 Y31.6911
G01 X25.0369 Y31.9959
G01 X25.0405 Y31.9999
G01 X25.0437 Y32.0042
G01 X25.0465 Y32.0089
G01 X25.0488 Y32.0138
G01 X25.0506 Y32.0188
G01 X25.0519 Y32.0241
G01 X25.0527 Y32.0294
G01 X25.0530 Y32.0348
G01 X25.0530 Y32.9909
G01 X25.0533 Y32.9973
G01 X25.0530 Y33.0091
G01 X25.0530 Y33.9652
G01 X25.0527 Y33.9706
G01 X25.0519 Y33.9759
G01 X25.0506 Y33.9812
G01 X25.0488 Y33.9862
G01 X25.0465 Y33.9911
G01 X25.0437 Y33.9958
G01 X25.0405 Y34.0001
G01 X25.0369 Y34.0041
G01 X24.7321 Y34.3089
G01 X24.7281 Y34.3125
G01 X24.7238 Y34.3157
G01 X24.7191 Y34.3185
G01 X24.7142 Y34.3208
G01 X24.7092 Y34.3226
G01 X24.7039 Y34.3239
G01 X24.6986 Y34.3247
G01 X24.6932 Y34.3250
G01 X24.0670 Y34.3250
G01 X16.2647 Y42.1273
G01 X16.2073 Y42.1794
G01 X16.1430 Y42.2274
G01 X16.0744 Y42.2688
G01 X16.0414 Y42.2847
G01 X15.9996 Y42.3222
G01 X15.8795 Y42.4113
G01 X15.8750 Y42.4143
G01 X15.7467 Y42.4912
G01 X15.7419 Y42.4938
G01 X15.6067 Y42.5577
G01 X15.6017 Y42.5598
G01 X15.4903 Y42.5996
G01 X15.4903 Y43.1357
G01 X15.4872 Y43.2007
G01 X15.4775 Y43.2677
G01 X15.4613 Y43.3335
G01 X15.4387 Y43.3974
G01 X15.4367 Y43.4024
G01 X15.4100 Y43.4587
G01 X15.3754 Y43.5170
G01 X15.3353 Y43.5715
G01 X15.2881 Y43.6239
G01 X13.0736 Y45.8384
G01 X13.0212 Y45.8856
G01 X12.9667 Y45.9257
G01 X12.9132 Y45.9578
G01 X12.8521 Y45.9870
G01 X12.8471 Y45.9890
G01 X12.7832 Y46.0116
G01 X12.7227 Y46.0268
G01 X12.6558 Y46.0370
G01 X12.5854 Y46.0406
G01 X9.1919 Y46.0406
G01 X9.1216 Y46.0370
G01 X9.0546 Y46.0268
G01 X8.9890 Y46.0100
G01 X8.9253 Y45.9870
G01 X8.8641 Y45.9578
G01 X8.8062 Y45.9227
G01 X8.7519 Y45.8822
G01 X8.7038 Y45.8384
G01 X5.8119 Y42.9465
G01 X5.7681 Y42.8984
G01 X5.7276 Y42.8441
G01 X5.7246 Y42.8396
G01 X5.6900 Y42.7814
G01 X5.6613 Y42.7200
G01 X5.6387 Y42.6562
G01 X5.6225 Y42.5904
G01 X5.6128 Y42.5234
G01 X5.6097 Y42.4584
G01 X5.6097 Y32.6859
G01 X1.4026 Y28.4788
G01 X1.3588 Y28.4307
G01 X1.3183 Y28.3764
G01 X1.3153 Y28.3719
G01 X1.2807 Y28.3137
G01 X1.2519 Y28.2523
G01 X1.2294 Y28.1885
G01 X1.2142 Y28.1280
G01 X1.2040 Y28.0610
G01 X1.2004 Y27.9907
G01 X1.2004 Y5.8621
G01 X1.2040 Y5.7917
G01 X1.2142 Y5.7247
G01 X1.2309 Y5.6591
G01 X1.2540 Y5.5954
G01 X1.2832 Y5.5343
G01 X1.3183 Y5.4763
G01 X1.3588 Y5.4221
G01 X1.4026 Y5.3739
G01 X3.9666 Y2.8100
G01 X4.0128 Y2.7681
G01 X4.0670 Y2.7276
G01 X4.1250 Y2.6925
G01 X4.1861 Y2.6633
G01 X4.2498 Y2.6403
G01 X4.3154 Y2.6235
G01 X4.3824 Y2.6133
G01 X4.3878 Y2.6128
G01 X4.4527 Y2.6097
G01 X31.4643 Y2.6097
G01 X31.5346 Y2.6133
G01 X31.6016 Y2.6235
G01 X31.6672 Y2.6403
G01 X31.7309 Y2.6633
G01 X31.7920 Y2.6925
G01 X31.8500 Y2.7276
G01 X31.9042 Y2.7681
G01 X31.9524 Y2.8119
G01 X35.7881 Y6.6476
G01 X35.8353 Y6.6999
G01 X35.8754 Y6.7545
G01 X35.9075 Y6.8080
G01 X35.9367 Y6.8691
G01 X35.9387 Y6.8741
G01 X35.9613 Y6.9380
G01 X35.9765 Y6.9984
G01 X35.9867 Y7.0654
G01 X35.9903 Y7.1330
G01 X35.9903 Y8.7830
G01 X36.2652 Y8.7830
G01 X36.2706 Y8.7833
G01 X36.2759 Y8.7841
G01 X36.2812 Y8.7854
G01 X36.2862 Y8.7872
G01 X36.2911 Y8.7895
G01 X36.2958 Y8.7923
G01 X36.3001 Y8.7955
G01 X36.3041 Y8.7991
G01 X36.6089 Y9.1039
G01 X36.6125 Y9.1079
G01 X36.6157 Y9.1122
G01 X36.6185 Y9.1169
G01 X36.6208 Y9.1218
G01 X36.6226 Y9.1268
G01 X36.6239 Y9.1321
G01 X36.6247 Y9.1374
G01 X36.6250 Y9.1428
G01 X36.6250 Y10.0572
G01 X36.6247 Y10.0626
G01 X36.6239 Y10.0679
G01 X36.6226 Y10.0732
G01 X36.6208 Y10.0782
G01 X36.6185 Y10.0831
G01 X36.6157 Y10.0878
G01 X36.6125 Y10.0921
G01 X36.6089 Y10.0961
G01 X36.3041 Y10.4009
G01 X36.3001 Y10.4045
G01 X36.2958 Y10.4077
G01 X36.2911 Y10.4105
G01 X36.2862 Y10.4128
G01 X36.2812 Y10.4146
G01 X36.2759 Y10.4159
G01 X36.2706 Y10.4167
G01 X36.2652 Y10.4170
G01 X34.3348 Y10.4170
G01 X34.3294 Y10.4167
G01 X34.3241 Y10.4159
G01 X34.3188 Y10.4146
G01 X34.3138 Y10.4128
G01 X34.3089 Y10.4105
G01 X34.3042 Y10.4077
G01 X34.2999 Y10.4045
G01 X34.2959 Y10.4009
G01 X33.9911 Y10.0961
G01 X33.9875 Y10.0921
G01 X33.9843 Y10.0878
G01 X33.9815 Y10.0831
G01 X33.9792 Y10.0782
G01 X33.9774 Y10.0732
G01 X33.9761 Y10.0679
G01 X33.9753 Y10.0626
G01 X33.9750 Y10.0572
G01 X33.9750 Y9.1428
G01 X33.9753 Y9.1374
G01 X33.9761 Y9.1321
G01 X33.9774 Y9.1268
G01 X33.9792 Y9.1218
G01 X33.9815 Y9.1169
G01 X33.9843 Y9.1122
G01 X33.9875 Y9.1079
G01 X33.9911 Y9.1039
G01 X34.2959 Y8.7991
G01 X34.2999 Y8.7955
G01 X34.3042 Y8.7923
G01 X34.3089 Y8.7895
G01 X34.3138 Y8.7872
G01 X34.3188 Y8.7854
G01 X34.3241 Y8.7841
G01 X34.3294 Y8.7833
G01 X34.3348 Y8.7830
G01 X34.6097 Y8.7830
G01 X34.6097 Y7.4217
G01 X31.1783 Y3.9903
G01 X4.7387 Y3.9903
G01 X2.5810 Y6.1480
G01 X2.5810 Y27.7048
G01 X6.7881 Y31.9119
G01 X6.8353 Y31.9642
G01 X6.8754 Y32.0188
G01 X6.9100 Y32.0770
G01 X6.9367 Y32.1334
G01 X6.9597 Y32.1970
G01 X6.9765 Y32.2627
G01 X6.9775 Y32.2680
G01 X6.9872 Y32.3350
G01 X6.9903 Y32.4000
G01 X6.9903 Y42.1725
G01 X9.4778 Y44.6600
G01 X12.2995 Y44.6600
G01 X14.1097 Y42.8498
G01 X14.1097 Y42.4033
G00 Z2.0000
G00 X9.3178 Y39.6404
G01 F25.00
G01 Z-0.0187
G01 F45.00
G01 X9.3374 Y39.5134
G01 X9.3374 Y36.8426
G01 X9.3416 Y36.7625
G01 X9.3537 Y36.6832
G01 X9.3718 Y36.6106
G01 X9.3986 Y36.5350
G01 X9.4007 Y36.5300
G01 X9.4327 Y36.4624
G01 X9.4737 Y36.3934
G01 X9.5212 Y36.3288
G01 X9.5247 Y36.3247
G01 X9.5768 Y36.2673
G01 X16.6826 Y29.1614
G01 X16.6826 Y28.1170
G01 X16.5348 Y28.1170
G01 X16.5294 Y28.1167
G01 X16.5241 Y28.1159
G01 X16.5188 Y28.1146
G01 X16.5138 Y28.1128
G01 X16.5089 Y28.1105
G01 X16.5042 Y28.1077
G01 X16.4999 Y28.1045
G01 X16.4959 Y28.1009
G01 X16.1911 Y27.7961
G01 X16.1875 Y27.7921
G01 X16.1843 Y27.7878
G01 X16.1815 Y27.7831
G01 X16.1792 Y27.7782
G01 X16.1774 Y27.7732
G01 X16.1761 Y27.7679
G01 X16.1753 Y27.7626
G01 X16.1750 Y27.7572
G01 X16.1750 Y27.1513
G01 X12.2919 Y23.2681
G01 X12.2447 Y23.2158
G01 X12.2046 Y23.1612
G01 X12.1700 Y23.1030
G01 X12.1433 Y23.0466
G01 X12.1413 Y23.0417
G01 X12.1187 Y22.9778
G01 X12.1035 Y22.9173
G01 X12.0933 Y22.8503
G01 X12.0897 Y22.7827
G01 X12.0897 Y20.5170
G01 X11.8148 Y20.5170
G01 X11.8094 Y20.5167
G01 X11.8041 Y20.5159
G01 X11.7988 Y20.5146
G01 X11.7938 Y20.5128
G01 X11.7889 Y20.5105
G01 X11.7842 Y20.5077
G01 X11.7799 Y20.5045
G01 X11.7759 Y20.5009
G01 X11.5383 Y20.2633
G01 X8.5290 Y20.2633
G01 X8.5253 Y20.2868
G01 X8.5041 Y20.3714
G01 X8.4731 Y20.4587
G01 X8.4337 Y20.5426
G01 X8.3864 Y20.6222
G01 X8.3314 Y20.6967
G01 X8.2694 Y20.7656
G01 X8.2009 Y20.8280
G01 X8.1267 Y20.8834
G01 X8.0473 Y20.9312
G01 X7.9637 Y20.9710
G01 X7.8766 Y21.0025
G01 X7.7868 Y21.0253
G01 X7.7815 Y21.0263
G01 X7.6898 Y21.0397
G01 X7.5973 Y21.0439
G01 X7.5048 Y21.0391
G01 X7.4132 Y21.0253
G01 X7.3286 Y21.0041
G01 X7.2413 Y20.9731
G01 X7.1574 Y20.9337
G01 X7.0778 Y20.8864
G01 X7.0733 Y20.8834
G01 X6.9991 Y20.8280
G01 X6.9344 Y20.7694
G01 X6.9306 Y20.7656
G01 X6.8686 Y20.6967
G01 X6.8136 Y20.6222
G01 X6.7688 Y20.5473
G01 X6.7663 Y20.5426
G01 X6.7269 Y20.4587
G01 X6.6959 Y20.3714
G01 X6.6747 Y20.2868
G01 X6.6737 Y20.2815
G01 X6.6603 Y20.1898
G01 X6.6561 Y20.1027
G01 X6.6603 Y20.0102
G01 X6.6737 Y19.9185
G01 X6.6747 Y19.9132
G01 X6.6959 Y19.8286
G01 X6.7269 Y19.7413
G01 X6.7290 Y19.7363
G01 X6.7688 Y19.6527
G01 X6.8166 Y19.5733
G01 X6.8686 Y19.5033
G01 X6.9306 Y19.4344
G01 X6.9344 Y19.4306
G01 X6.9991 Y19.3720
G01 X7.0733 Y19.3166
G01 X7.0778 Y19.3136
G01 X7.1574 Y19.2663
G01 X7.2363 Y19.2290
G01 X7.3234 Y19.1975
G01 X7.3286 Y19.1959
G01 X7.4185 Y19.1737
G01 X7.5102 Y19.1603
G01 X7.5973 Y19.1561
G01 X7.6898 Y19.1603
G01 X7.7815 Y19.1737
G01 X7.8714 Y19.1959
G01 X7.9227 Y19.2140
G01 X7.9431 Y19.2020
G01 X7.9882 Y19.1807
G01 X8.0401 Y19.1618
G01 X8.0453 Y19.1603
G01 X8.0937 Y19.1482
G01 X8.1483 Y19.1398
G01 X8.2062 Y19.1367
G01 X11.5383 Y19.1367
G01 X11.7759 Y18.8991
G01 X11.7799 Y18.8955
G01 X11.7842 Y18.8923
G01 X11.7889 Y18.8895
G01 X11.7938 Y18.8872
G01 X11.7988 Y18.8854
G01 X11.8041 Y18.8841
G01 X11.8094 Y18.8833
G01 X11.8148 Y18.8830
G01 X13.7452 Y18.8830
G01 X13.7506 Y18.8833
G01 X13.7559 Y18.8841
G01 X13.7612 Y18.8854
G01 X13.7662 Y18.8872
G01 X13.7711 Y18.8895
G01 X13.7758 Y18.8923
G01 X13.7801 Y18.8955
G01 X13.7841 Y18.8991
G01 X14.0889 Y19.2039
G01 X14.0925 Y19.2079
G01 X14.0957 Y19.2122
G01 X14.0985 Y19.2169
G01 X14.1008 Y19.2218
G01 X14.1026 Y19.2268
G01 X14.1039 Y19.2321
G01 X14.1047 Y19.2374
G01 X14.1050 Y19.2428
G01 X14.1050 Y20.1572
G01 X14.1047 Y20.1626
G01 X14.1039 Y20.1679
G01 X14.1026 Y20.1732
G01 X14.1008 Y20.1782
G01 X14.0985 Y20.1831
G01 X14.0957 Y20.1878
G01 X14.0925 Y20.1921
G01 X14.0889 Y20.1961
G01 X13.7841 Y20.5009
G01 X13.7801 Y20.5045
G01 X13.7758 Y20.5077
G01 X13.7711 Y20.5105
G01 X13.7662 Y20.5128
G01 X13.7612 Y20.5146
G01 X13.7559 Y20.5159
G01 X13.7506 Y20.5167
G01 X13.7452 Y20.5170
G01 X13.4703 Y20.5170
G01 X13.4703 Y22.4941
G01 X17.4593 Y26.4830
G01 X18.1407 Y26.4830
G01 X19.6138 Y25.0100
G01 X19.6600 Y24.9681
G01 X19.7143 Y24.9276
G01 X19.7188 Y24.9246
G01 X19.7770 Y24.8900
G01 X19.8334 Y24.8633
G01 X19.8970 Y24.8403
G01 X19.9627 Y24.8235
G01 X19.9680 Y24.8225
G01 X20.0350 Y24.8128
G01 X20.1000 Y24.8097
G01 X28.3000 Y24.8097
G01 X28.3650 Y24.8128
G01 X28.4320 Y24.8225
G01 X28.4978 Y24.8387
G01 X28.5617 Y24.8613
G01 X28.6230 Y24.8900
G01 X28.6812 Y24.9246
G01 X28.6857 Y24.9276
G01 X28.7400 Y24.9681
G01 X28.7881 Y25.0119
G01 X30.3513 Y26.5750
G01 X31.1572 Y26.5750
G01 X31.1626 Y26.5753
G01 X31.1679 Y26.5761
G01 X31.1732 Y26.5774
G01 X31.1782 Y26.5792
G01 X31.1831 Y26.5815
G01 X31.1878 Y26.5843
G01 X31.1921 Y26.5875
G01 X31.1961 Y26.5911
G01 X31.3064 Y26.7014
G01 X34.9000 Y26.7014
G01 X35.0148 Y26.7070
G01 X35.0202 Y26.7075
G01 X35.1312 Y26.7240
G01 X35.1365 Y26.7251
G01 X35.2453 Y26.7523
G01 X35.2505 Y26.7539
G01 X35.3562 Y26.7917
G01 X35.3611 Y26.7938
G01 X35.4626 Y26.8417
G01 X35.4674 Y26.8443
G01 X35.5636 Y26.9020
G01 X35.5681 Y26.9050
G01 X35.6621 Y26.9750
G01 X35.7572 Y26.9750
G01 X35.7626 Y26.9753
G01 X35.7679 Y26.9761
G01 X35.7732 Y26.9774
G01 X35.7782 Y26.9792
G01 X35.7831 Y26.9815
G01 X35.7878 Y26.9843
G01 X35.7921 Y26.9875
G01 X35.7961 Y26.9911
G01 X35.9064 Y27.1014
G01 X45.4014 Y27.1014
G01 X45.4014 Y12.5711
G01 X45.4070 Y12.4563
G01 X45.4075 Y12.4509
G01 X45.4240 Y12.3399
G01 X45.4251 Y12.3346
G01 X45.4523 Y12.2257
G01 X45.4539 Y12.2206
G01 X45.4917 Y12.1149
G01 X45.4938 Y12.1099
G01 X45.5417 Y12.0085
G01 X45.5443 Y12.0037
G01 X45.6020 Y11.9075
G01 X45.6050 Y11.9030
G01 X45.6718 Y11.8128
G01 X45.6753 Y11.8087
G01 X45.7525 Y11.7236
G01 X50.0036 Y7.4725
G01 X50.0887 Y7.3953
G01 X50.0928 Y7.3918
G01 X50.1830 Y7.3250
G01 X50.1875 Y7.3220
G01 X50.2837 Y7.2643
G01 X50.2885 Y7.2617
G01 X50.3899 Y7.2138
G01 X50.3949 Y7.2117
G01 X50.5006 Y7.1739
G01 X50.5057 Y7.1723
G01 X50.6146 Y7.1451
G01 X50.6199 Y7.1440
G01 X50.7309 Y7.1275
G01 X50.7363 Y7.1270
G01 X50.8511 Y7.1214
G01 X54.2739 Y7.1214
G01 X54.3004 Y7.0978
G01 X54.4205 Y7.0087
G01 X54.4250 Y7.0057
G01 X54.5533 Y6.9288
G01 X54.5581 Y6.9262
G01 X54.6933 Y6.8623
G01 X54.6983 Y6.8602
G01 X54.8391 Y6.8098
G01 X54.8442 Y6.8083
G01 X54.9893 Y6.7719
G01 X54.9946 Y6.7709
G01 X55.1426 Y6.7489
G01 X55.1479 Y6.7484
G01 X55.2973 Y6.7411
G01 X55.3027 Y6.7411
G01 X55.4521 Y6.7484
G01 X55.4574 Y6.7489
G01 X55.6054 Y6.7709
G01 X55.6107 Y6.7719
G01 X55.7558 Y6.8083
G01 X55.7609 Y6.8098
G01 X55.9017 Y6.8602
G01 X55.9067 Y6.8623
G01 X56.0419 Y6.9262
G01 X56.0467 Y6.9288
G01 X56.1750 Y7.0057
G01 X56.1795 Y7.0087
G01 X56.2996 Y7.0978
G01 X56.3038 Y7.1012
G01 X56.4146 Y7.2016
G01 X56.4184 Y7.2054
G01 X56.5188 Y7.3162
G01 X56.5222 Y7.3204
G01 X56.6113 Y7.4405
G01 X56.6143 Y7.4450
G01 X56.6912 Y7.5733
G01 X56.6938 Y7.5781
G01 X56.7577 Y7.7133
G01 X56.7598 Y7.7183
G01 X56.8102 Y7.8591
G01 X56.8117 Y7.8642
G01 X56.8481 Y8.0093
G01 X56.8491 Y8.0146
G01 X56.8711 Y8.1626
G01 X56.8716 Y8.1679
G01 X56.8789 Y8.3173
G01 X56.8789 Y8.3227
G01 X56.8716 Y8.4721
G01 X56.8711 Y8.4774
G01 X56.8491 Y8.6254
G01 X56.8481 Y8.6307
G01 X56.8117 Y8.7758
G01 X56.8102 Y8.7809
G01 X56.7598 Y8.9217
G01 X56.7577 Y8.9267
G01 X56.6938 Y9.0619
G01 X56.6912 Y9.0667
G01 X56.6143 Y9.1950
G01 X56.6113 Y9.1995
G01 X56.5222 Y9.3196
G01 X56.5188 Y9.3238
G01 X56.4184 Y9.4346
G01 X56.4146 Y9.4384
G01 X56.3038 Y9.5388
G01 X56.2996 Y9.5422
G01 X56.1795 Y9.6313
G01 X56.1750 Y9.6343
G01 X56.0467 Y9.7112
G01 X56.0419 Y9.7138
G01 X55.9067 Y9.7777
G01 X55.9017 Y9.7798
G01 X55.7609 Y9.8302
G01 X55.7558 Y9.8317
G01 X55.6107 Y9.8681
G01 X55.6054 Y9.8691
G01 X55.4574 Y9.8911
G01 X55.4521 Y9.8916
G01 X55.3027 Y9.8989
G01 X55.2973 Y9.8989
G01 X55.1479 Y9.8916
G01 X55.1426 Y9.8911
G01 X54.9946 Y9.8691
G01 X54.9893 Y9.8681
G01 X54.8442 Y9.8317
G01 X54.8391 Y9.8302
G01 X54.6983 Y9.7798
G01 X54.6933 Y9.7777
G01 X54.5581 Y9.7138
G01 X54.5533 Y9.7112
G01 X54.4250 Y9.6343
G01 X54.4205 Y9.6313
G01 X54.3004 Y9.5422
G01 X54.2739 Y9.5186
G01 X51.3475 Y9.5186
G01 X47.7986 Y13.0675
G01 X47.7986 Y27.7697
G01 X47.7930 Y27.8845
G01 X47.7925 Y27.8898
G01 X47.7784 Y27.9848
G01 X47.7925 Y28.0798
G01 X47.7930 Y28.0852
G01 X47.7985 Y28.1973
G01 X47.7985 Y28.2034
G01 X48.0765 Y28.4814
G01 X53.5739 Y28.4814
G01 X53.6004 Y28.4578
G01 X53.7205 Y28.3687
G01 X53.7250 Y28.3657
G01 X53.8533 Y28.2888
G01 X53.8581 Y28.2862
G01 X53.9933 Y28.2223
G01 X53.9983 Y28.2202
G01 X54.1391 Y28.1698
G01 X54.1442 Y28.1683
G01 X54.2893 Y28.1319
G01 X54.2946 Y28.1309
G01 X54.4426 Y28.1089
G01 X54.4479 Y28.1084
G01 X54.5973 Y28.1011
G01 X54.6027 Y28.1011
G01 X54.7521 Y28.1084
G01 X54.7574 Y28.1089
G01 X54.9054 Y28.1309
G01 X54.9107 Y28.1319
G01 X55.0558 Y28.1683
G01 X55.0609 Y28.1698
G01 X55.2017 Y28.2202
G01 X55.2067 Y28.2223
G01 X55.3419 Y28.2862
G01 X55.3467 Y28.2888
G01 X55.4750 Y28.3657
G01 X55.4795 Y28.3687
G01 X55.5996 Y28.4578
G01 X55.6038 Y28.4612
G01 X55.7146 Y28.5616
G01 X55.7184 Y28.5654
G01 X55.8188 Y28.6762
G01 X55.8222 Y28.6804
G01 X55.9113 Y28.8005
G01 X55.9143 Y28.8050
G01 X55.9912 Y28.9333
G01 X55.9938 Y28.9381
G01 X56.0577 Y29.0733
G01 X56.0598 Y29.0783
G01 X56.1102 Y29.2191
G01 X56.1117 Y29.2242
G01 X56.1481 Y29.3693
G01 X56.1491 Y29.3746
G01 X56.1711 Y29.5226
G01 X56.1716 Y29.5279
G01 X56.1789 Y29.6773
G01 X56.1789 Y29.6827
G01 X56.1716 Y29.8321
G01 X56.1711 Y29.8374
G01 X56.1491 Y29.9854
G01 X56.1481 Y29.9907
G01 X56.1117 Y30.1358
G01 X56.1102 Y30.1409
G01 X56.0598 Y30.2817
G01 X56.0577 Y30.2867
G01 X55.9938 Y30.4219
G01 X55.9912 Y30.4267
G01 X55.9143 Y30.5550
G01 X55.9113 Y30.5595
G01 X55.8222 Y30.6796
G01 X55.8188 Y30.6838
G01 X55.7184 Y30.7946
G01 X55.7146 Y30.7984
G01 X55.6038 Y30.8988
G01 X55.5996 Y30.9022
G01 X55.4795 Y30.9913
G01 X55.4750 Y30.9943
G01 X55.3467 Y31.0712
G01 X55.3419 Y31.0738
G01 X55.2067 Y31.1377
G01 X55.2017 Y31.1398
G01 X55.0609 Y31.1902
G01 X55.0558 Y31.1917
G01 X54.9107 Y31.2281
G01 X54.9054 Y31.2291
G01 X54.7574 Y31.2511
G01 X54.7521 Y31.2516
G01 X54.6027 Y31.2589
G01 X54.5973 Y31.2589
G01 X54.4479 Y31.2516
G01 X54.4426 Y31.2511
G01 X54.2946 Y31.2291
G01 X54.2893 Y31.2281
G01 X54.1442 Y31.1917
G01 X54.1391 Y31.1902
G01 X53.9983 Y31.1398
G01 X53.9933 Y31.1377
G01 X53.8581 Y31.0738
G01 X53.8533 Y31.0712
G01 X53.7250 Y30.9943
G01 X53.7205 Y30.9913
G01 X53.6004 Y30.9022
G01 X53.5739 Y30.8786
G01 X47.5800 Y30.8786
G01 X47.4652 Y30.8730
G01 X47.4598 Y30.8725
G01 X47.3488 Y30.8560
G01 X47.3435 Y30.8549
G01 X47.2347 Y30.8277
G01 X47.2295 Y30.8261
G01 X47.1238 Y30.7883
G01 X47.1189 Y30.7862
G01 X47.0174 Y30.7383
G01 X47.0126 Y30.7357
G01 X46.9164 Y30.6780
G01 X46.9119 Y30.6750
G01 X46.8218 Y30.6082
G01 X46.8176 Y30.6047
G01 X46.7325 Y30.5275
G01 X45.7035 Y29.4986
G01 X35.9064 Y29.4986
G01 X35.7961 Y29.6089
G01 X35.7921 Y29.6125
G01 X35.7878 Y29.6157
G01 X35.7831 Y29.6185
G01 X35.7782 Y29.6208
G01 X35.7732 Y29.6226
G01 X35.7679 Y29.6239
G01 X35.7626 Y29.6247
G01 X35.7572 Y29.6250
G01 X34.8428 Y29.6250
G01 X34.8374 Y29.6247
G01 X34.8321 Y29.6239
G01 X34.8268 Y29.6226
G01 X34.8218 Y29.6208
G01 X34.8169 Y29.6185
G01 X34.8122 Y29.6157
G01 X34.8079 Y29.6125
G01 X34.8039 Y29.6089
G01 X34.4991 Y29.3041
G01 X34.4955 Y29.3001
G01 X34.4923 Y29.2958
G01 X34.4895 Y29.2911
G01 X34.4872 Y29.2862
G01 X34.4854 Y29.2812
G01 X34.4841 Y29.2759
G01 X34.4833 Y29.2706
G01 X34.4830 Y29.1753
G01 X34.4525 Y29.1475
G01 X34.4035 Y29.0986
G01 X31.3064 Y29.0986
G01 X31.1961 Y29.2089
G01 X31.1921 Y29.2125
G01 X31.1878 Y29.2157
G01 X31.1831 Y29.2185
G01 X31.1782 Y29.2208
G01 X31.1732 Y29.2226
G01 X31.1679 Y29.2239
G01 X31.1626 Y29.2247
G01 X31.1572 Y29.2250
G01 X30.2428 Y29.2250
G01 X30.2374 Y29.2247
G01 X30.2321 Y29.2239
G01 X30.2268 Y29.2226
G01 X30.2218 Y29.2208
G01 X30.2169 Y29.2185
G01 X30.2122 Y29.2157
G01 X30.2079 Y29.2125
G01 X30.2039 Y29.2089
G01 X29.8991 Y28.9041
G01 X29.8955 Y28.9001
G01 X29.8923 Y28.8958
G01 X29.8895 Y28.8911
G01 X29.8872 Y28.8862
G01 X29.8854 Y28.8812
G01 X29.8841 Y28.8759
G01 X29.8833 Y28.8706
G01 X29.8830 Y28.7753
G01 X29.8506 Y28.7456
G01 X29.7753 Y28.6624
G01 X29.7718 Y28.6582
G01 X29.7050 Y28.5681
G01 X29.7020 Y28.5636
G01 X29.6443 Y28.4674
G01 X29.6417 Y28.4626
G01 X29.5938 Y28.3611
G01 X29.5917 Y28.3562
G01 X29.5539 Y28.2505
G01 X29.5523 Y28.2453
G01 X29.5251 Y28.1365
G01 X29.5240 Y28.1312
G01 X29.5075 Y28.0202
G01 X29.5070 Y28.0148
G01 X29.5015 Y27.9027
G01 X29.5015 Y27.8973
G01 X29.5070 Y27.7852
G01 X29.5199 Y27.6962
G01 X28.0141 Y26.1903
G01 X20.3859 Y26.1903
G01 X18.8250 Y27.7513
G01 X18.8247 Y27.7626
G01 X18.8239 Y27.7679
G01 X18.8226 Y27.7732
G01 X18.8208 Y27.7782
G01 X18.8185 Y27.7831
G01 X18.8157 Y27.7878
G01 X18.8125 Y27.7921
G01 X18.8089 Y27.7961
G01 X18.5041 Y28.1009
G01 X18.5001 Y28.1045
G01 X18.4958 Y28.1077
G01 X18.4911 Y28.1105
G01 X18.4862 Y28.1128
G01 X18.4812 Y28.1146
G01 X18.4759 Y28.1159
G01 X18.4706 Y28.1167
G01 X18.4652 Y28.1170
G01 X18.3174 Y28.1170
G01 X18.3174 Y29.5000
G01 X18.3136 Y29.5774
G01 X18.3021 Y29.6568
G01 X18.3011 Y29.6621
G01 X18.2829 Y29.7347
G01 X18.2561 Y29.8103
G01 X18.2221 Y29.8829
G01 X18.1811 Y29.9518
G01 X18.1335 Y30.0164
G01 X18.1301 Y30.0206
G01 X18.0780 Y30.0780
G01 X10.9721 Y37.1838
G01 X10.9721 Y39.5760
G01 X10.9699 Y39.6363
G01 X10.9629 Y39.6984
G01 X10.9334 Y39.8899
G01 X11.0346 Y39.9816
G01 X11.0384 Y39.9854
G01 X11.1388 Y40.0962
G01 X11.1422 Y40.1004
G01 X11.2313 Y40.2205
G01 X11.2343 Y40.2250
G01 X11.3112 Y40.3533
G01 X11.3138 Y40.3581
G01 X11.3777 Y40.4933
G01 X11.3798 Y40.4983
G01 X11.4302 Y40.6391
G01 X11.4317 Y40.6442
G01 X11.4681 Y40.7893
G01 X11.4691 Y40.7946
G01 X11.4911 Y40.9426
G01 X11.4916 Y40.9479
G01 X11.4989 Y41.0973
G01 X11.4989 Y41.1027
G01 X11.4916 Y41.2521
G01 X11.4911 Y41.2574
G01 X11.4691 Y41.4054
G01 X11.4681 Y41.4107
G01 X11.4317 Y41.5558
G01 X11.4302 Y41.5609
G01 X11.3798 Y41.7017
G01 X11.3777 Y41.7067
G01 X11.3138 Y41.8419
G01 X11.3112 Y41.8467
G01 X11.2343 Y41.9750
G01 X11.2313 Y41.9795
G01 X11.1422 Y42.0996
G01 X11.1388 Y42.1038
G01 X11.0384 Y42.2146
G01 X11.0346 Y42.2184
G01 X10.9238 Y42.3188
G01 X10.9196 Y42.3222
G01 X10.7995 Y42.4113
G01 X10.7950 Y42.4143
G01 X10.6667 Y42.4912
G01 X10.6619 Y42.4938
G01 X10.5267 Y42.5577
G01 X10.5217 Y42.5598
G01 X10.3809 Y42.6102
G01 X10.3758 Y42.6117
G01 X10.2307 Y42.6481
G01 X10.2254 Y42.6491
G01 X10.0774 Y42.6711
G01 X10.0721 Y42.6716
G01 X9.9227 Y42.6789
G01 X9.9173 Y42.6789
G01 X9.7679 Y42.6716
G01 X9.7626 Y42.6711
G01 X9.6146 Y42.6491
G01 X9.6093 Y42.6481
G01 X9.4642 Y42.6117
G01 X9.4591 Y42.6102
G01 X9.3183 Y42.5598
G01 X9.3133 Y42.5577
G01 X9.1781 Y42.4938
G01 X9.1733 Y42.4912
G01 X9.0450 Y42.4143
G01 X9.0405 Y42.4113
G01 X8.9204 Y42.3222
G01 X8.9162 Y42.3188
G01 X8.8054 Y42.2184
G01 X8.8016 Y42.2146
G01 X8.7012 Y42.1038
G01 X8.6978 Y42.0996
G01 X8.6087 Y41.9795
G01 X8.6057 Y41.9750
G01 X8.5288 Y41.8467
G01 X8.5262 Y41.8419
G01 X8.4623 Y41.7067
G01 X8.4602 Y41.7017
G01 X8.4098 Y41.5609
G01 X8.4083 Y41.5558
G01 X8.3719 Y41.4107
G01 X8.3709 Y41.4054
G01 X8.3489 Y41.2574
G01 X8.3484 Y41.2521
G01 X8.3411 Y41.1027
G01 X8.3411 Y41.0973
G01 X8.3484 Y40.9479
G01 X8.3489 Y40.9426
G01 X8.3709 Y40.7946
G01 X8.3719 Y40.7893
G01 X8.4083 Y40.6442
G01 X8.4098 Y40.6391
G01 X8.4602 Y40.4983
G01 X8.4623 Y40.4933
G01 X8.5262 Y40.3581
G01 X8.5288 Y40.3533
G01 X8.6057 Y40.2250
G01 X8.6087 Y40.2205
G01 X8.6978 Y40.1004
G01 X8.7012 Y40.0962
G01 X8.8016 Y39.9854
G01 X8.8054 Y39.9816
G01 X8.9162 Y39.8812
G01 X8.9204 Y39.8778
G01 X9.0405 Y39.7887
G01 X9.0450 Y39.7857
G01 X9.1733 Y39.7088
G01 X9.1781 Y39.7062
G01 X9.3178 Y39.6404
G00 Z2.0000
G00 X36.6089 Y11.6439
G01 F25.00
G01 Z-0.0187
G01 F45.00
G01 X36.6125 Y11.6479
G01 X36.6157 Y11.6522
G01 X36.6185 Y11.6569
G01 X36.6208 Y11.6618
G01 X36.6226 Y11.6668
G01 X36.6239 Y11.6721
G01 X36.6247 Y11.6774
G01 X36.6250 Y11.6828
G01 X36.6250 Y12.5972
G01 X36.6247 Y12.6026
G01 X36.6239 Y12.6079
G01 X36.6226 Y12.6132
G01 X36.6208 Y12.6182
G01 X36.6185 Y12.6231
G01 X36.6157 Y12.6278
G01 X36.6125 Y12.6321
G01 X36.6089 Y12.6361
G01 X36.3041 Y12.9409
G01 X36.3001 Y12.9445
G01 X36.2958 Y12.9477
G01 X36.2911 Y12.9505
G01 X36.2862 Y12.9528
G01 X36.2812 Y12.9546
G01 X36.2759 Y12.9559
G01 X36.2706 Y12.9567
G01 X36.2652 Y12.9570
G01 X35.9903 Y12.9570
G01 X35.9903 Y17.0253
G01 X36.1009 Y17.1359
G01 X36.1045 Y17.1399
G01 X36.1077 Y17.1442
G01 X36.1105 Y17.1489
G01 X36.1128 Y17.1538
G01 X36.1146 Y17.1588
G01 X36.1159 Y17.1641
G01 X36.1167 Y17.1694
G01 X36.1170 Y17.1748
G01 X36.1170 Y19.1052
G01 X36.1167 Y19.1106
G01 X36.1159 Y19.1159
G01 X36.1146 Y19.1212
G01 X36.1128 Y19.1262
G01 X36.1105 Y19.1311
G01 X36.1077 Y19.1358
G01 X36.1045 Y19.1401
G01 X36.1009 Y19.1441
G01 X35.7961 Y19.4489
G01 X35.7921 Y19.4525
G01 X35.7878 Y19.4557
G01 X35.7831 Y19.4585
G01 X35.7782 Y19.4608
G01 X35.7732 Y19.4626
G01 X35.7679 Y19.4639
G01 X35.7626 Y19.4647
G01 X35.7572 Y19.4650
G01 X34.8428 Y19.4650
G01 X34.8374 Y19.4647
G01 X34.8321 Y19.4639
G01 X34.8268 Y19.4626
G01 X34.8218 Y19.4608
G01 X34.8169 Y19.4585
G01 X34.8122 Y19.4557
G01 X34.8079 Y19.4525
G01 X34.8039 Y19.4489
G01 X34.4991 Y19.1441
G01 X34.4955 Y19.1401
G01 X34.4923 Y19.1358
G01 X34.4895 Y19.1311
G01 X34.4872 Y19.1262
G01 X34.4854 Y19.1212
G01 X34.4841 Y19.1159
G01 X34.4833 Y19.1106
G01 X34.4830 Y19.1052
G01 X34.4830 Y17.1748
G01 X34.4833 Y17.1694
G01 X34.4841 Y17.1641
G01 X34.4854 Y17.1588
G01 X34.4872 Y17.1538
G01 X34.4895 Y17.1489
G01 X34.4923 Y17.1442
G01 X34.4955 Y17.1399
G01 X34.4991 Y17.1359
G01 X34.6097 Y17.0253
G01 X34.6097 Y12.9570
G01 X34.3348 Y12.9570
G01 X34.3294 Y12.9567
G01 X34.3241 Y12.9559
G01 X34.3188 Y12.9546
G01 X34.3138 Y12.9528
G01 X34.3089 Y12.9505
G01 X34.3042 Y12.9477
G01 X34.2999 Y12.9445
G01 X34.2959 Y12.9409
G01 X33.9911 Y12.6361
G01 X33.9875 Y12.6321
G01 X33.9843 Y12.6278
G01 X33.9815 Y12.6231
G01 X33.9792 Y12.6182
G01 X33.9774 Y12.6132
G01 X33.9761 Y12.6079
G01 X33.9753 Y12.6026
G01 X33.9750 Y12.5972
G01 X33.9750 Y11.6828
G01 X33.9753 Y11.6774
G01 X33.9761 Y11.6721
G01 X33.9774 Y11.6668
G01 X33.9792 Y11.6618
G01 X33.9815 Y11.6569
G01 X33.9843 Y11.6522
G01 X33.9875 Y11.6479
G01 X33.9911 Y11.6439
G01 X34.2959 Y11.3391
G01 X34.2999 Y11.3355
G01 X34.3042 Y11.3323
G01 X34.3089 Y11.3295
G01 X34.3138 Y11.3272
G01 X34.3188 Y11.3254
G01 X34.3241 Y11.3241
G01 X34.3294 Y11.3233
G01 X34.3348 Y11.3230
G01 X36.2652 Y11.3230
G01 X36.2706 Y11.3233
G01 X36.2759 Y11.3241
G01 X36.2812 Y11.3254
G01 X36.2862 Y11.3272
G01 X36.2911 Y11.3295
G01 X36.2958 Y11.3323
G01 X36.3001 Y11.3355
G01 X36.3041 Y11.3391
G01 X36.6089 Y11.6439
G00 Z2.0000
G00 X59.6947 Y4.3469
G01 F25.00
G01 Z-0.0187
G01 F45.00
G01 X59.7552 Y4.4135
G01 X59.8106 Y4.4878
G01 X59.8585 Y4.5671
G01 X59.8983 Y4.6508
G01 X59.9298 Y4.7380
G01 X59.9526 Y4.8278
G01 X59.9664 Y4.9194
G01 X59.9670 Y4.9248
G01 X59.9713 Y5.0147
G01 X59.9713 Y9.9359
G01 X59.9670 Y10.0258
G01 X59.9536 Y10.1175
G01 X59.9526 Y10.1228
G01 X59.9298 Y10.2127
G01 X59.8983 Y10.2998
G01 X59.8585 Y10.3835
G01 X59.8106 Y10.4629
G01 X59.7552 Y10.5371
G01 X59.6966 Y10.6018
G01 X58.7306 Y11.5678
G01 X58.6640 Y11.6283
G01 X58.6598 Y11.6317
G01 X58.5852 Y11.6867
G01 X58.5104 Y11.7316
G01 X58.4267 Y11.7715
G01 X58.4217 Y11.7735
G01 X58.3344 Y11.8045
G01 X58.2497 Y11.8257
G01 X58.1581 Y11.8396
G01 X58.0655 Y11.8444
G01 X58.0601 Y11.8444
G01 X57.9676 Y11.8396
G01 X57.8759 Y11.8257
G01 X57.7913 Y11.8045
G01 X57.7039 Y11.7735
G01 X57.6989 Y11.7715
G01 X57.6200 Y11.7341
G01 X57.5404 Y11.6867
G01 X57.4658 Y11.6317
G01 X57.3969 Y11.5697
G01 X57.3931 Y11.5659
G01 X57.3345 Y11.5012
G01 X57.3060 Y11.4633
G01 X53.1444 Y11.4633
G01 X53.1444 Y21.0088
G01 X55.3418 Y23.2062
G01 X55.3467 Y23.2088
G01 X55.4750 Y23.2857
G01 X55.4795 Y23.2887
G01 X55.5996 Y23.3778
G01 X55.6038 Y23.3812
G01 X55.7146 Y23.4816
G01 X55.7184 Y23.4854
G01 X55.8188 Y23.5962
G01 X55.8222 Y23.6004
G01 X55.9113 Y23.7205
G01 X55.9143 Y23.7250
G01 X55.9912 Y23.8533
G01 X55.9938 Y23.8582
G01 X56.0678 Y23.9322
G01 X56.1283 Y23.9988
G01 X56.1837 Y24.0731
G01 X56.2316 Y24.1524
G01 X56.2715 Y24.2361
G01 X56.2735 Y24.2411
G01 X56.3045 Y24.3284
G01 X56.3268 Y24.4184
G01 X56.3401 Y24.5101
G01 X56.3444 Y24.5973
G01 X56.3401 Y24.6899
G01 X56.3268 Y24.7816
G01 X56.3210 Y24.8057
G01 X58.3577 Y26.8423
G01 X58.4265 Y26.9182
G01 X58.4299 Y26.9224
G01 X58.4894 Y27.0025
G01 X58.4924 Y27.0070
G01 X58.5437 Y27.0925
G01 X58.5462 Y27.0973
G01 X58.5889 Y27.1875
G01 X58.5909 Y27.1925
G01 X58.6245 Y27.2864
G01 X58.6261 Y27.2916
G01 X58.6503 Y27.3883
G01 X58.6514 Y27.3936
G01 X58.6660 Y27.4923
G01 X58.6665 Y27.4977
G01 X58.6715 Y27.6000
G01 X58.6715 Y33.7481
G01 X58.6665 Y33.8504
G01 X58.6660 Y33.8558
G01 X58.6514 Y33.9545
G01 X58.6503 Y33.9597
G01 X58.6261 Y34.0565
G01 X58.6245 Y34.0617
G01 X58.5909 Y34.1556
G01 X58.5889 Y34.1606
G01 X58.5462 Y34.2508
G01 X58.5437 Y34.2555
G01 X58.4924 Y34.3411
G01 X58.4894 Y34.3456
G01 X58.4299 Y34.4257
G01 X58.4265 Y34.4299
G01 X58.3577 Y34.5057
G01 X57.8057 Y35.0577
G01 X57.7299 Y35.1265
G01 X57.7257 Y35.1299
G01 X57.6456 Y35.1894
G01 X57.6411 Y35.1924
G01 X57.5555 Y35.2437
G01 X57.5508 Y35.2462
G01 X57.4606 Y35.2889
G01 X57.4556 Y35.2909
G01 X57.3617 Y35.3245
G01 X57.3565 Y35.3261
G01 X57.2597 Y35.3503
G01 X57.2545 Y35.3514
G01 X57.1558 Y35.3660
G01 X57.1504 Y35.3665
G01 X57.0481 Y35.3715
G01 X47.7646 Y35.3715
G01 X47.7646 Y42.3462
G01 X47.8514 Y42.7420
G01 X47.9038 Y42.7812
G01 X48.0146 Y42.8816
G01 X48.0184 Y42.8854
G01 X48.1188 Y42.9962
G01 X48.1222 Y43.0004
G01 X48.2113 Y43.1205
G01 X48.2143 Y43.1250
G01 X48.2912 Y43.2533
G01 X48.2938 Y43.2581
G01 X48.3577 Y43.3933
G01 X48.3598 Y43.3983
G01 X48.4102 Y43.5391
G01 X48.4117 Y43.5442
G01 X48.4481 Y43.6893
G01 X48.4491 Y43.6946
G01 X48.4711 Y43.8426
G01 X48.4716 Y43.8479
G01 X48.4789 Y43.9973
G01 X48.4789 Y44.0027
G01 X48.4716 Y44.1521
G01 X48.4711 Y44.1574
G01 X48.4491 Y44.3054
G01 X48.4481 Y44.3107
G01 X48.4117 Y44.4558
G01 X48.4102 Y44.4609
G01 X48.3598 Y44.6017
G01 X48.3577 Y44.6067
G01 X48.2938 Y44.7419
G01 X48.2912 Y44.7467
G01 X48.2143 Y44.8750
G01 X48.2113 Y44.8795
G01 X48.1222 Y44.9996
G01 X48.1188 Y45.0038
G01 X48.0184 Y45.1146
G01 X48.0146 Y45.1184
G01 X47.9038 Y45.2188
G01 X47.8996 Y45.2222
G01 X47.7795 Y45.3113
G01 X47.7750 Y45.3143
G01 X47.6467 Y45.3912
G01 X47.6419 Y45.3938
G01 X47.5067 Y45.4577
G01 X47.5017 Y45.4598
G01 X47.3609 Y45.5102
G01 X47.3558 Y45.5117
G01 X47.2107 Y45.5481
G01 X47.2054 Y45.5491
G01 X47.0574 Y45.5711
G01 X47.0521 Y45.5716
G01 X46.9027 Y45.5789
G01 X46.8973 Y45.5789
G01 X46.7479 Y45.5716
G01 X46.7426 Y45.5711
G01 X46.5946 Y45.5491
G01 X46.5893 Y45.5481
G01 X46.4442 Y45.5117
G01 X46.4391 Y45.5102
G01 X46.2983 Y45.4598
G01 X46.2933 Y45.4577
G01 X46.1581 Y45.3938
G01 X46.1533 Y45.3912
G01 X46.0250 Y45.3143
G01 X46.0205 Y45.3113
G01 X45.9004 Y45.2222
G01 X45.8962 Y45.2188
G01 X45.7854 Y45.1184
G01 X45.7816 Y45.1146
G01 X45.6812 Y45.0038
G01 X45.6778 Y44.9996
G01 X45.5887 Y44.8795
G01 X45.5857 Y44.8750
G01 X45.5088 Y44.7467
G01 X45.5062 Y44.7419
G01 X45.4423 Y44.6067
G01 X45.4402 Y44.6017
G01 X45.3898 Y44.4609
G01 X45.3883 Y44.4558
G01 X45.3519 Y44.3107
G01 X45.3509 Y44.3054
G01 X45.3289 Y44.1574
G01 X45.3284 Y44.1521
G01 X45.3211 Y44.0027
G01 X45.3211 Y43.9973
G01 X45.3284 Y43.8479
G01 X45.3289 Y43.8426
G01 X45.3509 Y43.6946
G01 X45.3519 Y43.6893
G01 X45.3883 Y43.5442
G01 X45.3898 Y43.5391
G01 X45.4402 Y43.3983
G01 X45.4423 Y43.3933
G01 X45.5062 Y43.2581
G01 X45.5092 Y43.2526
G01 X45.3947 Y42.7296
G01 X45.3749 Y42.6080
G01 X45.3742 Y42.6021
G01 X45.3675 Y42.4760
G01 X45.3675 Y34.6168
G01 X44.6222 Y33.8715
G01 X29.1170 Y33.8715
G01 X29.1170 Y33.9652
G01 X29.1167 Y33.9706
G01 X29.1159 Y33.9759
G01 X29.1146 Y33.9812
G01 X29.1128 Y33.9862
G01 X29.1105 Y33.9911
G01 X29.1077 Y33.9958
G01 X29.1045 Y34.0001
G01 X29.1009 Y34.0041
G01 X28.7961 Y34.3089
G01 X28.7921 Y34.3125
G01 X28.7878 Y34.3157
G01 X28.7831 Y34.3185
G01 X28.7782 Y34.3208
G01 X28.7732 Y34.3226
G01 X28.7679 Y34.3239
G01 X28.7626 Y34.3247
G01 X28.7572 Y34.3250
G01 X27.8428 Y34.3250
G01 X27.8374 Y34.3247
G01 X27.8321 Y34.3239
G01 X27.8268 Y34.3226
G01 X27.8218 Y34.3208
G01 X27.8169 Y34.3185
G01 X27.8122 Y34.3157
G01 X27.8079 Y34.3125
G01 X27.8039 Y34.3089
G01 X27.4991 Y34.0041
G01 X27.4955 Y34.0001
G01 X27.4923 Y33.9958
G01 X27.4895 Y33.9911
G01 X27.4872 Y33.9862
G01 X27.4854 Y33.9812
G01 X27.4841 Y33.9759
G01 X27.4833 Y33.9706
G01 X27.4830 Y33.9652
G01 X27.4830 Y33.6923
G01 X27.4701 Y33.6776
G01 X27.4106 Y33.5975
G01 X27.4076 Y33.5930
G01 X27.3563 Y33.5075
G01 X27.3538 Y33.5027
G01 X27.3111 Y33.4125
G01 X27.3091 Y33.4075
G01 X27.2755 Y33.3136
G01 X27.2739 Y33.3084
G01 X27.2497 Y33.2117
G01 X27.2486 Y33.2064
G01 X27.2340 Y33.1077
G01 X27.2335 Y33.1023
G01 X27.2286 Y33.0027
G01 X27.2286 Y32.9973
G01 X27.2335 Y32.8977
G01 X27.2340 Y32.8923
G01 X27.2486 Y32.7936
G01 X27.2497 Y32.7883
G01 X27.2739 Y32.6916
G01 X27.2755 Y32.6864
G01 X27.3091 Y32.5925
G01 X27.3111 Y32.5875
G01 X27.3538 Y32.4973
G01 X27.3563 Y32.4925
G01 X27.4076 Y32.4070
G01 X27.4106 Y32.4025
G01 X27.4701 Y32.3224
G01 X27.4830 Y32.3077
G01 X27.4830 Y32.0348
G01 X27.4833 Y32.0294
G01 X27.4841 Y32.0241
G01 X27.4854 Y32.0188
G01 X27.4872 Y32.0138
G01 X27.4895 Y32.0089
G01 X27.4923 Y32.0042
G01 X27.4955 Y31.9999
G01 X27.4991 Y31.9959
G01 X27.8039 Y31.6911
G01 X27.8079 Y31.6875
G01 X27.8122 Y31.6843
G01 X27.8169 Y31.6815
G01 X27.8218 Y31.6792
G01 X27.8268 Y31.6774
G01 X27.8321 Y31.6761
G01 X27.8374 Y31.6753
G01 X27.8428 Y31.6750
G01 X28.7572 Y31.6750
G01 X28.7626 Y31.6753
G01 X28.7679 Y31.6761
G01 X28.7732 Y31.6774
G01 X28.7782 Y31.6792
G01 X28.7831 Y31.6815
G01 X28.7878 Y31.6843
G01 X28.7921 Y31.6875
G01 X28.8335 Y31.7285
G01 X45.0661 Y31.7285
G01 X45.1684 Y31.7335
G01 X45.1738 Y31.7340
G01 X45.2724 Y31.7486
G01 X45.2777 Y31.7497
G01 X45.3745 Y31.7739
G01 X45.3797 Y31.7755
G01 X45.4736 Y31.8091
G01 X45.4786 Y31.8111
G01 X45.5688 Y31.8538
G01 X45.5735 Y31.8563
G01 X45.6591 Y31.9076
G01 X45.6636 Y31.9106
G01 X45.7437 Y31.9701
G01 X45.7479 Y31.9735
G01 X45.8237 Y32.0423
G01 X46.9457 Y33.1643
G01 X47.0222 Y33.1917
G01 X47.1006 Y33.2285
G01 X56.5285 Y33.2285
G01 X56.5285 Y28.0438
G01 X54.6607 Y26.1761
G01 X54.5973 Y26.1789
G01 X54.4479 Y26.1716
G01 X54.4426 Y26.1711
G01 X54.2946 Y26.1491
G01 X54.2893 Y26.1481
G01 X54.1442 Y26.1117
G01 X54.1391 Y26.1102
G01 X53.9983 Y26.0598
G01 X53.9933 Y26.0577
G01 X53.8581 Y25.9938
G01 X53.8533 Y25.9912
G01 X53.7250 Y25.9143
G01 X53.7205 Y25.9113
G01 X53.6004 Y25.8222
G01 X53.5962 Y25.8188
G01 X53.4854 Y25.7184
G01 X53.4816 Y25.7146
G01 X53.3812 Y25.6038
G01 X53.3778 Y25.5996
G01 X53.2887 Y25.4795
G01 X53.2857 Y25.4750
G01 X53.2088 Y25.3467
G01 X53.2062 Y25.3419
G01 X53.1423 Y25.2067
G01 X53.1402 Y25.2017
G01 X53.0898 Y25.0609
G01 X53.0883 Y25.0558
G01 X53.0519 Y24.9107
G01 X53.0509 Y24.9054
G01 X53.0289 Y24.7574
G01 X53.0284 Y24.7521
G01 X53.0211 Y24.6027
G01 X53.0211 Y24.5973
G01 X53.0284 Y24.4479
G01 X53.0289 Y24.4426
G01 X53.0509 Y24.2946
G01 X53.0519 Y24.2893
G01 X53.0883 Y24.1442
G01 X53.0898 Y24.1391
G01 X53.1402 Y23.9983
G01 X53.1423 Y23.9933
G01 X53.2062 Y23.8581
G01 X53.2496 Y23.7852
G01 X51.5322 Y22.0678
G01 X51.4717 Y22.0012
G01 X51.4163 Y21.9269
G01 X51.4133 Y21.9224
G01 X51.3659 Y21.8428
G01 X51.3265 Y21.7589
G01 X51.2955 Y21.6716
G01 X51.2743 Y21.5869
G01 X51.2604 Y21.4953
G01 X51.2599 Y21.4899
G01 X51.2556 Y21.4000
G01 X51.2556 Y11.0973
G01 X51.2599 Y11.0101
G01 X51.2732 Y10.9184
G01 X51.2955 Y10.8284
G01 X51.3265 Y10.7411
G01 X51.3659 Y10.6572
G01 X51.4133 Y10.5776
G01 X51.4163 Y10.5731
G01 X51.4717 Y10.4988
G01 X51.5341 Y10.4303
G01 X51.6030 Y10.3683
G01 X51.6776 Y10.3133
G01 X51.7524 Y10.2684
G01 X51.8361 Y10.2285
G01 X51.9233 Y10.1971
G01 X52.0131 Y10.1743
G01 X52.1047 Y10.1604
G01 X52.1973 Y10.1556
G01 X52.2899 Y10.1599
G01 X52.3816 Y10.1732
G01 X52.4716 Y10.1955
G01 X52.5589 Y10.2265
G01 X52.6428 Y10.2659
G01 X52.7224 Y10.3133
G01 X52.7545 Y10.3367
G01 X57.3060 Y10.3367
G01 X57.3345 Y10.2988
G01 X57.3950 Y10.2322
G01 X58.0824 Y9.5447
G01 X58.0824 Y5.4059
G01 X57.8419 Y5.1654
G01 X46.1703 Y5.1654
G01 X44.0444 Y7.2912
G01 X44.0444 Y19.3000
G01 X44.0401 Y19.3899
G01 X44.0396 Y19.3953
G01 X44.0257 Y19.4869
G01 X44.0045 Y19.5716
G01 X43.9735 Y19.6589
G01 X43.9715 Y19.6639
G01 X43.9316 Y19.7476
G01 X43.8837 Y19.8269
G01 X43.8317 Y19.8970
G01 X43.8283 Y19.9012
G01 X43.7678 Y19.9678
G01 X39.6678 Y24.0678
G01 X39.6012 Y24.1283
G01 X39.5970 Y24.1317
G01 X39.5224 Y24.1867
G01 X39.4428 Y24.2341
G01 X39.3639 Y24.2715
G01 X39.2767 Y24.3029
G01 X39.1869 Y24.3257
G01 X39.1816 Y24.3268
G01 X39.0899 Y24.3401
G01 X39.0000 Y24.3444
G01 X23.1000 Y24.3444
G01 X23.0101 Y24.3401
G01 X23.0048 Y24.3396
G01 X22.9131 Y24.3257
G01 X22.8285 Y24.3045
G01 X22.7411 Y24.2735
G01 X22.7361 Y24.2715
G01 X22.6525 Y24.2316
G01 X22.5731 Y24.1837
G01 X22.5030 Y24.1317
G01 X22.4341 Y24.0697
G01 X19.7303 Y21.3658
G01 X19.6683 Y21.2970
G01 X19.6133 Y21.2224
G01 X19.5658 Y21.1428
G01 X19.5285 Y21.0639
G01 X19.4971 Y20.9767
G01 X19.4743 Y20.8869
G01 X19.4604 Y20.7952
G01 X19.4599 Y20.7899
G01 X19.4555 Y20.7000
G01 X19.4555 Y20.5170
G01 X19.4348 Y20.5170
G01 X19.4294 Y20.5167
G01 X19.4241 Y20.5159
G01 X19.4188 Y20.5146
G01 X19.4138 Y20.5128
G01 X19.4089 Y20.5105
G01 X19.4042 Y20.5077
G01 X19.3999 Y20.5045
G01 X19.3959 Y20.5009
G01 X19.1169 Y20.2219
G01 X19.1104 Y20.2193
G01 X19.0653 Y20.1980
G01 X19.0177 Y20.1698
G01 X18.9732 Y20.1371
G01 X18.9301 Y20.0983
G01 X17.5694 Y18.7375
G01 X17.5325 Y18.6964
G01 X17.4998 Y18.6518
G01 X17.4716 Y18.6043
G01 X17.4503 Y18.5592
G01 X17.4314 Y18.5072
G01 X17.4298 Y18.5021
G01 X17.4167 Y18.4484
G01 X17.4088 Y18.3937
G01 X17.4063 Y18.3412
G01 X17.4063 Y10.4494
G01 X17.4093 Y10.3915
G01 X17.4177 Y10.3369
G01 X17.4314 Y10.2833
G01 X17.4503 Y10.2314
G01 X17.4741 Y10.1815
G01 X17.5028 Y10.1343
G01 X17.5359 Y10.0900
G01 X17.5713 Y10.0511
G01 X18.0416 Y9.5807
G01 X18.0847 Y9.5420
G01 X18.1293 Y9.5092
G01 X18.1721 Y9.4836
G01 X18.2219 Y9.4597
G01 X18.2739 Y9.4409
G01 X18.2790 Y9.4393
G01 X18.3274 Y9.4272
G01 X18.3820 Y9.4188
G01 X18.4399 Y9.4158
G01 X21.7325 Y9.4158
G01 X21.7850 Y9.4183
G01 X21.8397 Y9.4261
G01 X21.8934 Y9.4393
G01 X21.8986 Y9.4409
G01 X21.9505 Y9.4597
G01 X21.9956 Y9.4811
G01 X22.0004 Y9.4836
G01 X22.0477 Y9.5122
G01 X22.0919 Y9.5454
G01 X22.1288 Y9.5789
G01 X24.1086 Y11.5586
G01 X27.4449 Y11.5586
G01 X28.3165 Y10.6869
G01 X28.3165 Y10.3360
G01 X28.2789 Y10.3077
G01 X28.2142 Y10.2492
G01 X28.2104 Y10.2453
G01 X28.1484 Y10.1765
G01 X28.0934 Y10.1020
G01 X28.0460 Y10.0224
G01 X28.0087 Y9.9435
G01 X27.9773 Y9.8564
G01 X27.9757 Y9.8512
G01 X27.9535 Y9.7613
G01 X27.9401 Y9.6696
G01 X27.9358 Y9.5825
G01 X27.9401 Y9.4899
G01 X27.9535 Y9.3983
G01 X27.9545 Y9.3930
G01 X27.9773 Y9.3032
G01 X28.0087 Y9.2161
G01 X28.0460 Y9.1372
G01 X28.0934 Y9.0576
G01 X28.0964 Y9.0531
G01 X28.1518 Y8.9789
G01 X28.2104 Y8.9142
G01 X28.2789 Y8.8518
G01 X28.3531 Y8.7964
G01 X28.3576 Y8.7934
G01 X28.4324 Y8.7486
G01 X28.4765 Y8.7274
G01 X28.4765 Y7.1968
G01 X28.0746 Y7.1968
G01 X28.0692 Y7.1965
G01 X28.0639 Y7.1957
G01 X28.0586 Y7.1944
G01 X28.0535 Y7.1926
G01 X28.0487 Y7.1903
G01 X28.0440 Y7.1875
G01 X28.0397 Y7.1843
G01 X28.0357 Y7.1807
G01 X27.7309 Y6.8759
G01 X27.7273 Y6.8719
G01 X27.7240 Y6.8675
G01 X27.7213 Y6.8629
G01 X27.7190 Y6.8580
G01 X27.7171 Y6.8529
G01 X27.7158 Y6.8477
G01 X27.7150 Y6.8424
G01 X27.7148 Y6.8370
G01 X27.7148 Y5.9226
G01 X27.7150 Y5.9172
G01 X27.7158 Y5.9119
G01 X27.7171 Y5.9066
G01 X27.7190 Y5.9015
G01 X27.7213 Y5.8967
G01 X27.7240 Y5.8920
G01 X27.7273 Y5.8877
G01 X27.7309 Y5.8837
G01 X28.0357 Y5.5789
G01 X28.0397 Y5.5753
G01 X28.0440 Y5.5720
G01 X28.0487 Y5.5693
G01 X28.0535 Y5.5670
G01 X28.0586 Y5.5651
G01 X28.0639 Y5.5638
G01 X28.0692 Y5.5630
G01 X28.0746 Y5.5628
G01 X30.0050 Y5.5628
G01 X30.0104 Y5.5630
G01 X30.0157 Y5.5638
G01 X30.0209 Y5.5651
G01 X30.0260 Y5.5670
G01 X30.0309 Y5.5693
G01 X30.0355 Y5.5720
G01 X30.0399 Y5.5753
G01 X30.0439 Y5.5789
G01 X30.3487 Y5.8837
G01 X30.3523 Y5.8877
G01 X30.3555 Y5.8920
G01 X30.3583 Y5.8967
G01 X30.3606 Y5.9015
G01 X30.3624 Y5.9066
G01 X30.3637 Y5.9119
G01 X30.3645 Y5.9172
G01 X30.3648 Y5.9226
G01 X30.3648 Y6.8370
G01 X30.3645 Y6.8424
G01 X30.3637 Y6.8477
G01 X30.3624 Y6.8529
G01 X30.3606 Y6.8580
G01 X30.3583 Y6.8629
G01 X30.3555 Y6.8675
G01 X30.3523 Y6.8719
G01 X30.3487 Y6.8759
G01 X30.0439 Y7.1807
G01 X30.0399 Y7.1843
G01 X30.0355 Y7.1875
G01 X30.0309 Y7.1903
G01 X30.0260 Y7.1926
G01 X30.0209 Y7.1944
G01 X30.0157 Y7.1957
G01 X30.0104 Y7.1965
G01 X30.0050 Y7.1968
G01 X29.6030 Y7.1968
G01 X29.6030 Y8.9737
G01 X29.6112 Y8.9830
G01 X29.6661 Y9.0576
G01 X29.7135 Y9.1372
G01 X29.7529 Y9.2210
G01 X29.7839 Y9.3084
G01 X29.8061 Y9.3983
G01 X29.8194 Y9.4899
G01 X29.8237 Y9.5825
G01 X29.8194 Y9.6696
G01 X29.8061 Y9.7613
G01 X29.7839 Y9.8512
G01 X29.7529 Y9.9385
G01 X29.7135 Y10.0224
G01 X29.6661 Y10.1020
G01 X29.6631 Y10.1064
G01 X29.6077 Y10.1807
G01 X29.5453 Y10.2492
G01 X29.4807 Y10.3077
G01 X29.4430 Y10.3360
G01 X29.4430 Y10.9229
G01 X29.4400 Y10.9781
G01 X29.4316 Y11.0327
G01 X29.4195 Y11.0811
G01 X29.4179 Y11.0863
G01 X29.3991 Y11.1382
G01 X29.3752 Y11.1881
G01 X29.3466 Y11.2354
G01 X29.3168 Y11.2754
G01 X29.2781 Y11.3185
G01 X28.0765 Y12.5201
G01 X28.0375 Y12.5555
G01 X27.9933 Y12.5886
G01 X27.9460 Y12.6172
G01 X27.8962 Y12.6411
G01 X27.8442 Y12.6600
G01 X27.7907 Y12.6737
G01 X27.7361 Y12.6820
G01 X27.6782 Y12.6851
G01 X23.8753 Y12.6851
G01 X23.8174 Y12.6820
G01 X23.7628 Y12.6737
G01 X23.7144 Y12.6615
G01 X23.6623 Y12.6432
G01 X23.6122 Y12.6198
G01 X23.6075 Y12.6172
G01 X23.5602 Y12.5886
G01 X23.5201 Y12.5589
G01 X23.4790 Y12.5220
G01 X21.4992 Y10.5423
G01 X18.6732 Y10.5423
G01 X18.5328 Y10.6827
G01 X18.5328 Y18.1079
G01 X19.3600 Y18.9350
G01 X19.3999 Y18.8955
G01 X19.4042 Y18.8923
G01 X19.4089 Y18.8895
G01 X19.4138 Y18.8872
G01 X19.4188 Y18.8854
G01 X19.4241 Y18.8841
G01 X19.4294 Y18.8833
G01 X19.4348 Y18.8830
G01 X19.9281 Y18.8830
G01 X19.9572 Y18.8659
G01 X20.0361 Y18.8285
G01 X20.1233 Y18.7971
G01 X20.1285 Y18.7955
G01 X20.2131 Y18.7743
G01 X20.3048 Y18.7604
G01 X20.3973 Y18.7556
G01 X20.4027 Y18.7556
G01 X20.4953 Y18.7604
G01 X20.5869 Y18.7743
G01 X20.6716 Y18.7955
G01 X20.6767 Y18.7971
G01 X20.7639 Y18.8285
G01 X20.8428 Y18.8659
G01 X20.8719 Y18.8830
G01 X21.3652 Y18.8830
G01 X21.3706 Y18.8833
G01 X21.3759 Y18.8841
G01 X21.3812 Y18.8854
G01 X21.3862 Y18.8872
G01 X21.3911 Y18.8895
G01 X21.3958 Y18.8923
G01 X21.4001 Y18.8955
G01 X21.4041 Y18.8991
G01 X21.7089 Y19.2039
G01 X21.7125 Y19.2079
G01 X21.7157 Y19.2122
G01 X21.7185 Y19.2169
G01 X21.7208 Y19.2218
G01 X21.7226 Y19.2268
G01 X21.7239 Y19.2321
G01 X21.7247 Y19.2374
G01 X21.7250 Y19.2428
G01 X21.7250 Y20.1572
G01 X21.7247 Y20.1626
G01 X21.7239 Y20.1679
G01 X21.7226 Y20.1732
G01 X21.7208 Y20.1782
G01 X21.7185 Y20.1831
G01 X21.7157 Y20.1878
G01 X21.7125 Y20.1921
G01 X21.7089 Y20.1961
G01 X21.4703 Y20.4347
G01 X23.4912 Y22.4556
G01 X38.6088 Y22.4556
G01 X42.1556 Y18.9088
G01 X42.1556 Y6.9000
G01 X42.1599 Y6.8101
G01 X42.1732 Y6.7184
G01 X42.1743 Y6.7131
G01 X42.1971 Y6.6233
G01 X42.2285 Y6.5361
G01 X42.2659 Y6.4572
G01 X42.3133 Y6.3776
G01 X42.3163 Y6.3731
G01 X42.3717 Y6.2988
G01 X42.4303 Y6.2341
G01 X45.1112 Y3.5531
G01 X45.1779 Y3.4926
G01 X45.2521 Y3.4372
G01 X45.2566 Y3.4342
G01 X45.3363 Y3.3868
G01 X45.4201 Y3.3474
G01 X45.5075 Y3.3164
G01 X45.5975 Y3.2942
G01 X45.6892 Y3.2808
G01 X45.7791 Y3.2765
G01 X57.7764 Y3.2765
G01 X57.7948 Y3.2680
G01 X57.8770 Y3.2386
G01 X57.9669 Y3.2159
G01 X57.9722 Y3.2148
G01 X58.0639 Y3.2015
G01 X58.1511 Y3.1972
G01 X58.2436 Y3.2015
G01 X58.3353 Y3.2148
G01 X58.3406 Y3.2159
G01 X58.4253 Y3.2371
G01 X58.5127 Y3.2680
G01 X58.5176 Y3.2701
G01 X58.6013 Y3.3100
G01 X58.6807 Y3.3578
G01 X58.7508 Y3.4098
G01 X58.7549 Y3.4133
G01 X58.8216 Y3.4737
G01 X59.6947 Y4.3469
G00 Z2.0000
G00 X63.0678 Y3.4624
G01 F25.00
G01 Z-0.0187
G01 F45.00
G01 X63.1283 Y3.5290
G01 X63.1837 Y3.6033
G01 X63.2316 Y3.6827
G01 X63.2715 Y3.7663
G01 X63.3029 Y3.8535
G01 X63.3257 Y3.9433
G01 X63.3396 Y4.0350
G01 X63.3401 Y4.0404
G01 X63.3444 Y4.1302
G01 X63.3444 Y45.1600
G01 X63.3401 Y45.2499
G01 X63.3268 Y45.3416
G01 X63.3257 Y45.3469
G01 X63.3029 Y45.4367
G01 X63.2715 Y45.5239
G01 X63.2316 Y45.6076
G01 X63.1837 Y45.6869
G01 X63.1283 Y45.7612
G01 X63.0678 Y45.8278
G01 X60.5259 Y48.3697
G01 X60.4570 Y48.4317
G01 X60.3824 Y48.4867
G01 X60.3028 Y48.5341
G01 X60.2239 Y48.5715
G01 X60.1367 Y48.6029
G01 X60.0469 Y48.6257
G01 X60.0416 Y48.6268
G01 X59.9499 Y48.6401
G01 X59.8600 Y48.6444
G01 X53.8000 Y48.6444
G01 X53.7101 Y48.6401
G01 X53.7047 Y48.6396
G01 X53.6131 Y48.6257
G01 X53.5233 Y48.6029
G01 X53.4361 Y48.5715
G01 X53.3524 Y48.5316
G01 X53.2731 Y48.4837
G01 X53.1988 Y48.4283
G01 X53.1322 Y48.3678
G01 X51.5322 Y46.7678
G01 X51.4717 Y46.7012
G01 X51.4683 Y46.6970
G01 X51.4133 Y46.6224
G01 X51.3659 Y46.5428
G01 X51.3265 Y46.4589
G01 X51.2955 Y46.3716
G01 X51.2743 Y46.2869
G01 X51.2604 Y46.1953
G01 X51.2599 Y46.1899
G01 X51.2556 Y46.1000
G01 X51.2556 Y45.4020
G01 X51.2333 Y45.3912
G01 X51.1050 Y45.3143
G01 X51.1005 Y45.3113
G01 X50.9804 Y45.2222
G01 X50.9762 Y45.2188
G01 X50.8654 Y45.1184
G01 X50.8616 Y45.1146
G01 X50.7612 Y45.0038
G01 X50.7578 Y44.9996
G01 X50.6687 Y44.8795
G01 X50.6657 Y44.8750
G01 X50.5888 Y44.7467
G01 X50.5862 Y44.7419
G01 X50.5223 Y44.6067
G01 X50.5202 Y44.6017
G01 X50.4698 Y44.4609
G01 X50.4683 Y44.4558
G01 X50.4319 Y44.3107
G01 X50.4309 Y44.3054
G01 X50.4089 Y44.1574
G01 X50.4084 Y44.1521
G01 X50.4011 Y44.0027
G01 X50.4011 Y43.9973
G01 X50.4084 Y43.8479
G01 X50.4089 Y43.8426
G01 X50.4309 Y43.6946
G01 X50.4319 Y43.6893
G01 X50.4683 Y43.5442
G01 X50.4698 Y43.5391
G01 X50.5202 Y43.3983
G01 X50.5223 Y43.3933
G01 X50.5862 Y43.2581
G01 X50.5888 Y43.2533
G01 X50.6657 Y43.1250
G01 X50.6687 Y43.1205
G01 X50.7578 Y43.0004
G01 X50.7612 Y42.9962
G01 X50.8616 Y42.8854
G01 X50.8654 Y42.8816
G01 X50.9762 Y42.7812
G01 X50.9804 Y42.7778
G01 X51.1005 Y42.6887
G01 X51.1050 Y42.6857
G01 X51.2333 Y42.6088
G01 X51.2381 Y42.6062
G01 X51.3733 Y42.5423
G01 X51.3783 Y42.5402
G01 X51.5191 Y42.4898
G01 X51.5242 Y42.4883
G01 X51.6693 Y42.4519
G01 X51.6746 Y42.4509
G01 X51.8226 Y42.4289
G01 X51.8279 Y42.4284
G01 X51.9773 Y42.4211
G01 X51.9827 Y42.4211
G01 X52.1321 Y42.4284
G01 X52.1374 Y42.4289
G01 X52.2854 Y42.4509
G01 X52.2907 Y42.4519
G01 X52.4358 Y42.4883
G01 X52.4409 Y42.4898
G01 X52.5817 Y42.5402
G01 X52.5867 Y42.5423
G01 X52.7219 Y42.6062
G01 X52.7267 Y42.6088
G01 X52.8550 Y42.6857
G01 X52.8595 Y42.6887
G01 X52.9796 Y42.7778
G01 X52.9838 Y42.7812
G01 X53.0946 Y42.8816
G01 X53.0984 Y42.8854
G01 X53.1988 Y42.9962
G01 X53.2022 Y43.0004
G01 X53.2913 Y43.1205
G01 X53.2943 Y43.1250
G01 X53.3712 Y43.2533
G01 X53.3738 Y43.2581
G01 X53.4377 Y43.3933
G01 X53.4398 Y43.3983
G01 X53.4902 Y43.5391
G01 X53.4917 Y43.5442
G01 X53.5281 Y43.6893
G01 X53.5291 Y43.6946
G01 X53.5511 Y43.8426
G01 X53.5516 Y43.8479
G01 X53.5589 Y43.9973
G01 X53.5589 Y44.0027
G01 X53.5516 Y44.1521
G01 X53.5511 Y44.1574
G01 X53.5291 Y44.3054
G01 X53.5281 Y44.3107
G01 X53.4917 Y44.4558
G01 X53.4902 Y44.4609
G01 X53.4398 Y44.6017
G01 X53.4377 Y44.6067
G01 X53.3738 Y44.7419
G01 X53.3712 Y44.7467
G01 X53.2943 Y44.8750
G01 X53.2913 Y44.8795
G01 X53.2022 Y44.9996
G01 X53.1444 Y45.0637
G01 X53.1444 Y45.7088
G01 X54.1912 Y46.7556
G01 X59.4688 Y46.7556
G01 X61.4556 Y44.7688
G01 X61.4556 Y4.5214
G01 X59.7786 Y2.8444
G01 X44.5912 Y2.8444
G01 X41.5444 Y5.8912
G01 X41.5444 Y17.8446
G01 X41.5401 Y17.9345
G01 X41.5268 Y18.0262
G01 X41.5257 Y18.0315
G01 X41.5029 Y18.1213
G01 X41.4715 Y18.2085
G01 X41.4341 Y18.2874
G01 X41.3867 Y18.3670
G01 X41.3317 Y18.4416
G01 X41.3283 Y18.4458
G01 X41.2678 Y18.5124
G01 X38.1124 Y21.6678
G01 X38.0458 Y21.7283
G01 X38.0416 Y21.7317
G01 X37.9670 Y21.7867
G01 X37.8874 Y21.8341
G01 X37.8035 Y21.8735
G01 X37.7162 Y21.9045
G01 X37.6262 Y21.9268
G01 X37.5345 Y21.9401
G01 X37.4446 Y21.9444
G01 X25.1000 Y21.9444
G01 X25.0101 Y21.9401
G01 X25.0047 Y21.9396
G01 X24.9131 Y21.9257
G01 X24.8284 Y21.9045
G01 X24.7411 Y21.8735
G01 X24.7361 Y21.8715
G01 X24.6524 Y21.8316
G01 X24.5731 Y21.7837
G01 X24.5030 Y21.7317
G01 X24.4341 Y21.6697
G01 X20.8688 Y18.1044
G01 X20.4000 Y18.1044
G01 X20.3101 Y18.1001
G01 X20.2184 Y18.0868
G01 X20.2131 Y18.0857
G01 X20.1233 Y18.0629
G01 X20.0361 Y18.0315
G01 X19.9572 Y17.9941
G01 X19.9281 Y17.9770
G01 X19.4348 Y17.9770
G01 X19.4294 Y17.9767
G01 X19.4241 Y17.9759
G01 X19.4188 Y17.9746
G01 X19.4138 Y17.9728
G01 X19.4089 Y17.9705
G01 X19.4042 Y17.9677
G01 X19.3999 Y17.9645
G01 X19.3959 Y17.9609
G01 X19.0911 Y17.6561
G01 X19.0875 Y17.6521
G01 X19.0843 Y17.6478
G01 X19.0815 Y17.6431
G01 X19.0792 Y17.6382
G01 X19.0774 Y17.6332
G01 X19.0761 Y17.6279
G01 X19.0753 Y17.6226
G01 X19.0750 Y17.6172
G01 X19.0750 Y16.7028
G01 X19.0753 Y16.6974
G01 X19.0761 Y16.6921
G01 X19.0774 Y16.6868
G01 X19.0792 Y16.6818
G01 X19.0815 Y16.6769
G01 X19.0843 Y16.6722
G01 X19.0875 Y16.6679
G01 X19.0911 Y16.6639
G01 X19.3959 Y16.3591
G01 X19.3999 Y16.3555
G01 X19.4042 Y16.3523
G01 X19.4089 Y16.3495
G01 X19.4138 Y16.3472
G01 X19.4188 Y16.3454
G01 X19.4241 Y16.3441
G01 X19.4294 Y16.3433
G01 X19.4348 Y16.3430
G01 X19.9281 Y16.3430
G01 X19.9572 Y16.3259
G01 X20.0361 Y16.2885
G01 X20.1233 Y16.2571
G01 X20.2131 Y16.2343
G01 X20.2184 Y16.2332
G01 X20.3101 Y16.2199
G01 X20.4000 Y16.2156
G01 X21.2600 Y16.2156
G01 X21.3499 Y16.2199
G01 X21.3553 Y16.2204
G01 X21.4469 Y16.2343
G01 X21.5367 Y16.2571
G01 X21.6239 Y16.2885
G01 X21.7028 Y16.3259
G01 X21.7824 Y16.3733
G01 X21.7869 Y16.3763
G01 X21.8612 Y16.4317
G01 X21.9259 Y16.4903
G01 X25.4912 Y20.0556
G01 X37.0534 Y20.0556
G01 X39.6556 Y17.4534
G01 X39.6556 Y5.5000
G01 X39.6599 Y5.4101
G01 X39.6732 Y5.3184
G01 X39.6955 Y5.2284
G01 X39.7265 Y5.1411
G01 X39.7659 Y5.0572
G01 X39.8133 Y4.9776
G01 X39.8683 Y4.9030
G01 X39.8717 Y4.8988
G01 X39.9322 Y4.8322
G01 X43.5322 Y1.2322
G01 X43.5988 Y1.1717
G01 X43.6030 Y1.1683
G01 X43.6776 Y1.1133
G01 X43.7572 Y1.0659
G01 X43.8361 Y1.0285
G01 X43.9233 Y0.9971
G01 X44.0131 Y0.9743
G01 X44.0184 Y0.9732
G01 X44.1101 Y0.9599
G01 X44.2000 Y0.9556
G01 X60.1698 Y0.9556
G01 X60.2596 Y0.9599
G01 X60.2650 Y0.9604
G01 X60.3567 Y0.9743
G01 X60.4413 Y0.9955
G01 X60.5287 Y1.0265
G01 X60.5337 Y1.0285
G01 X60.6126 Y1.0659
G01 X60.6922 Y1.1133
G01 X60.6967 Y1.1163
G01 X60.7710 Y1.1717
G01 X60.8376 Y1.2322
G01 X63.0678 Y3.4624
G00 Z2.0000
G00 X64.1433 Y0.5567
G01 F25.00
G01 Z-0.0187
G01 F45.00
G01 X64.1433 Y49.6433
G01 X0.6567 Y49.6433
G01 X0.6567 Y0.5567
G01 X64.1433 Y0.5567
G00 Z2.0000
G00 X60.6577 Y18.7892
G01 F25.00
G01 Z-0.0187
G01 F45.00
G01 X60.7265 Y18.8651
G01 X60.7299 Y18.8692
G01 X60.7894 Y18.9494
G01 X60.7924 Y18.9539
G01 X60.8437 Y19.0394
G01 X60.8462 Y19.0442
G01 X60.8889 Y19.1344
G01 X60.8909 Y19.1393
G01 X60.9245 Y19.2333
G01 X60.9261 Y19.2384
G01 X60.9503 Y19.3352
G01 X60.9514 Y19.3405
G01 X60.9660 Y19.4392
G01 X60.9665 Y19.4445
G01 X60.9715 Y19.5469
G01 X60.9715 Y42.2000
G01 X60.9665 Y42.3023
G01 X60.9660 Y42.3077
G01 X60.9514 Y42.4064
G01 X60.9503 Y42.4117
G01 X60.9261 Y42.5084
G01 X60.9245 Y42.5136
G01 X60.8909 Y42.6075
G01 X60.8889 Y42.6125
G01 X60.8462 Y42.7027
G01 X60.8437 Y42.7075
G01 X60.7924 Y42.7930
G01 X60.7894 Y42.7975
G01 X60.7299 Y42.8776
G01 X60.7265 Y42.8818
G01 X60.6577 Y42.9577
G01 X60.1417 Y43.4737
G01 X60.0744 Y43.5354
G01 X58.5504 Y44.8194
G01 X58.4674 Y44.8827
G01 X58.4628 Y44.8858
G01 X58.3762 Y44.9389
G01 X58.3714 Y44.9415
G01 X58.2996 Y44.9762
G01 X58.2788 Y45.0038
G01 X58.1784 Y45.1146
G01 X58.1746 Y45.1184
G01 X58.0638 Y45.2188
G01 X58.0596 Y45.2222
G01 X57.9395 Y45.3113
G01 X57.9350 Y45.3143
G01 X57.8067 Y45.3912
G01 X57.8019 Y45.3938
G01 X57.6667 Y45.4577
G01 X57.6617 Y45.4598
G01 X57.5209 Y45.5102
G01 X57.5158 Y45.5117
G01 X57.3707 Y45.5481
G01 X57.3654 Y45.5491
G01 X57.2174 Y45.5711
G01 X57.2121 Y45.5716
G01 X57.0627 Y45.5789
G01 X57.0573 Y45.5789
G01 X56.9079 Y45.5716
G01 X56.9026 Y45.5711
G01 X56.7546 Y45.5491
G01 X56.7493 Y45.5481
G01 X56.6042 Y45.5117
G01 X56.5991 Y45.5102
G01 X56.4583 Y45.4598
G01 X56.4533 Y45.4577
G01 X56.3181 Y45.3938
G01 X56.3133 Y45.3912
G01 X56.1850 Y45.3143
G01 X56.1805 Y45.3113
G01 X56.0604 Y45.2222
G01 X56.0562 Y45.2188
G01 X55.9454 Y45.1184
G01 X55.9416 Y45.1146
G01 X55.8412 Y45.0038
G01 X55.8378 Y44.9996
G01 X55.7487 Y44.8795
G01 X55.7457 Y44.8750
G01 X55.6688 Y44.7467
G01 X55.6662 Y44.7419
G01 X55.6023 Y44.6067
G01 X55.6002 Y44.6017
G01 X55.5498 Y44.4609
G01 X55.5483 Y44.4558
G01 X55.5119 Y44.3107
G01 X55.5109 Y44.3054
G01 X55.4889 Y44.1574
G01 X55.4884 Y44.1521
G01 X55.4811 Y44.0027
G01 X55.4811 Y43.9973
G01 X55.4884 Y43.8479
G01 X55.4889 Y43.8426
G01 X55.5109 Y43.6946
G01 X55.5119 Y43.6893
G01 X55.5483 Y43.5442
G01 X55.5498 Y43.5391
G01 X55.6002 Y43.3983
G01 X55.6023 Y43.3933
G01 X55.6662 Y43.2581
G01 X55.6688 Y43.2533
G01 X55.7457 Y43.1250
G01 X55.7487 Y43.1205
G01 X55.8378 Y43.0004
G01 X55.8412 Y42.9962
G01 X55.9416 Y42.8854
G01 X55.9454 Y42.8816
G01 X56.0562 Y42.7812
G01 X56.0604 Y42.7778
G01 X56.1805 Y42.6887
G01 X56.1850 Y42.6857
G01 X56.3133 Y42.6088
G01 X56.3181 Y42.6062
G01 X56.4533 Y42.5423
G01 X56.4583 Y42.5402
G01 X56.5991 Y42.4898
G01 X56.6042 Y42.4883
G01 X56.7493 Y42.4519
G01 X56.7546 Y42.4509
G01 X56.9026 Y42.4289
G01 X56.9079 Y42.4284
G01 X57.0573 Y42.4211
G01 X57.0627 Y42.4211
G01 X57.2121 Y42.4284
G01 X57.2174 Y42.4289
G01 X57.3654 Y42.4509
G01 X57.3707 Y42.4519
G01 X57.5158 Y42.4883
G01 X57.5209 Y42.4898
G01 X57.6617 Y42.5402
G01 X57.6667 Y42.5423
G01 X57.8019 Y42.6062
G01 X57.8310 Y42.6233
G01 X58.6586 Y41.9260
G01 X58.8285 Y41.7562
G01 X58.8285 Y19.9907
G01 X54.5423 Y15.7045
G01 X54.4735 Y15.6287
G01 X54.4701 Y15.6245
G01 X54.4106 Y15.5444
G01 X54.4076 Y15.5399
G01 X54.3563 Y15.4543
G01 X54.3538 Y15.4496
G01 X54.3111 Y15.3594
G01 X54.3091 Y15.3544
G01 X54.2755 Y15.2605
G01 X54.2739 Y15.2553
G01 X54.2497 Y15.1585
G01 X54.2486 Y15.1533
G01 X54.2340 Y15.0546
G01 X54.2335 Y15.0492
G01 X54.2286 Y14.9496
G01 X54.2285 Y14.5574
G01 X54.1816 Y14.5146
G01 X54.0812 Y14.4038
G01 X54.0778 Y14.3996
G01 X53.9887 Y14.2795
G01 X53.9857 Y14.2750
G01 X53.9088 Y14.1467
G01 X53.9062 Y14.1419
G01 X53.8423 Y14.0067
G01 X53.8402 Y14.0017
G01 X53.7898 Y13.8609
G01 X53.7883 Y13.8558
G01 X53.7519 Y13.7107
G01 X53.7509 Y13.7054
G01 X53.7289 Y13.5574
G01 X53.7284 Y13.5521
G01 X53.7211 Y13.4027
G01 X53.7211 Y13.3973
G01 X53.7284 Y13.2479
G01 X53.7289 Y13.2426
G01 X53.7509 Y13.0946
G01 X53.7519 Y13.0893
G01 X53.7883 Y12.9442
G01 X53.7898 Y12.9391
G01 X53.8402 Y12.7983
G01 X53.8423 Y12.7933
G01 X53.9062 Y12.6581
G01 X53.9088 Y12.6533
G01 X53.9857 Y12.5250
G01 X53.9887 Y12.5205
G01 X54.0778 Y12.4004
G01 X54.0812 Y12.3962
G01 X54.1816 Y12.2854
G01 X54.1854 Y12.2816
G01 X54.2962 Y12.1812
G01 X54.3004 Y12.1778
G01 X54.4205 Y12.0887
G01 X54.4250 Y12.0857
G01 X54.5533 Y12.0088
G01 X54.5581 Y12.0062
G01 X54.6933 Y11.9423
G01 X54.6983 Y11.9402
G01 X54.8391 Y11.8898
G01 X54.8442 Y11.8883
G01 X54.9893 Y11.8519
G01 X54.9946 Y11.8509
G01 X55.1426 Y11.8289
G01 X55.1479 Y11.8284
G01 X55.2973 Y11.8211
G01 X55.3027 Y11.8211
G01 X55.4521 Y11.8284
G01 X55.4574 Y11.8289
G01 X55.6054 Y11.8509
G01 X55.6107 Y11.8519
G01 X55.7558 Y11.8883
G01 X55.7609 Y11.8898
G01 X55.9017 Y11.9402
G01 X55.9067 Y11.9423
G01 X56.0419 Y12.0062
G01 X56.0467 Y12.0088
G01 X56.1750 Y12.0857
G01 X56.1795 Y12.0887
G01 X56.2996 Y12.1778
G01 X56.3038 Y12.1812
G01 X56.4146 Y12.2816
G01 X56.4184 Y12.2854
G01 X56.5188 Y12.3962
G01 X56.5222 Y12.4004
G01 X56.6113 Y12.5205
G01 X56.6143 Y12.5250
G01 X56.6912 Y12.6533
G01 X56.6938 Y12.6581
G01 X56.7577 Y12.7933
G01 X56.7598 Y12.7983
G01 X56.8102 Y12.9391
G01 X56.8117 Y12.9442
G01 X56.8481 Y13.0893
G01 X56.8491 Y13.0946
G01 X56.8711 Y13.2426
G01 X56.8716 Y13.2479
G01 X56.8789 Y13.3973
G01 X56.8789 Y13.4027
G01 X56.8716 Y13.5521
G01 X56.8711 Y13.5574
G01 X56.8491 Y13.7054
G01 X56.8481 Y13.7107
G01 X56.8117 Y13.8558
G01 X56.8102 Y13.8609
G01 X56.7598 Y14.0017
G01 X56.7577 Y14.0067
G01 X56.6938 Y14.1419
G01 X56.6912 Y14.1467
G01 X56.6143 Y14.2750
G01 X56.6113 Y14.2795
G01 X56.5222 Y14.3996
G01 X56.5188 Y14.4038
G01 X56.4184 Y14.5146
G01 X56.4000 Y14.5316
G01 X60.6577 Y18.7892
G00 Z2.0000
M05
G00 Z2.0000
G00 Z15.00
G00 X0.0 Y0.0

